; generated by PrusaSlicer 2.8.0+win64 on 2024-07-03 at 08:32:07 UTC


;
;

;
;
; 

; external perimeters extrusion width = 0.45mm
; perimeters extrusion width = 0.45mm
; infill extrusion width = 0.45mm
; solid infill extrusion width = 0.45mm
; top infill extrusion width = 0.40mm
; first layer extrusion width = 0.42mm

M73 P0 R20

; printing object Adaptator Motor-Corps id:0 copy 0
; stop printing object Adaptator Motor-Corps id:0 copy 0

;TYPE:Custom
M104 S215 ; set extruder temp
M140 S74 ; set bed temp
M190 S74 ; wait for bed temp
M109 S215 ; wait for extruder temp
G1 Z5 F15000 ; lift
G1 X299 Y160 F4500 ; move to prime
G1 Z0.29 F4500 ; get ready to prime
G92 E0 ; reset extrusion distance
G1 Y150 E9.0 F600 ; prime nozzle
G1 Y110 E12.5 F600 ; prime nozzle
G1 Y80 F5000 ; quick wipe
G21 ; set units to millimeters
G90 ; use absolute coordinates
M83 ; use relative distances for extrusion
M900 K0.05 ; Filament gcode LA 1.5
M900 K30 ; Filament gcode LA 1.0
M107
;LAYER_CHANGE
;Z:0.22
;HEIGHT:0.22
G1 E-.8 F2100
G1 Z.42 F10800
G1 X128.204 Y86.252
G1 Z.22
G1 E.8 F2100
M204 S1000
;TYPE:Skirt/Brim
;WIDTH:0.42
G1 F1200
G1 X129.237 Y85.451 E.04457
G1 X130 Y85.314 E.02643
G1 X170 Y85.314 E1.36389
G1 X171.248 Y85.704 E.04458
M73 P1 R20
G1 X172.049 Y86.737 E.04457
G1 X172.186 Y87.5 E.02643
G1 X172.186 Y112.5 E.85243
G1 X171.796 Y113.748 E.04458
G1 X170.763 Y114.549 E.04457
G1 X170 Y114.686 E.02643
G1 X130 Y114.686 E1.36389
G1 X128.752 Y114.296 E.04458
G1 X127.951 Y113.263 E.04457
G1 X127.814 Y112.5 E.02643
G1 X127.814 Y87.5 E.85243
G1 X128.187 Y86.31 E.04252
;WIPE_START
G1 F8640
G1 X128.204 Y86.252 E-.01396
G1 X129.237 Y85.451 E-.30183
G1 X130 Y85.314 E-.179
G1 X131.322 Y85.314 E-.30521
;WIPE_END
G1 Z.42 F10800
; printing object Adaptator Motor-Corps id:0 copy 0
G1 X164.237 Y108.981
G1 Z.22
G1 E.8 F2100
;TYPE:Perimeter
G1 F1200
G1 X163.697 Y109.459 E.02459
G1 X163.06 Y109.794 E.02454
G1 X162.36 Y109.966 E.02458
G1 X161.64 Y109.966 E.02455
G1 X160.94 Y109.794 E.02458
G1 X160.303 Y109.459 E.02454
G1 X159.763 Y108.982 E.02457
G1 X159.354 Y108.389 E.02456
G1 X159.099 Y107.715 E.02457
G1 X159.012 Y107 E.02456
G1 X159.099 Y106.285 E.02456
G1 X159.354 Y105.611 E.02457
G1 X159.763 Y105.019 E.02453
G1 X160.303 Y104.541 E.02459
G1 X160.94 Y104.206 E.02454
G1 X161.64 Y104.034 E.02458
G1 X162.36 Y104.034 E.02455
G1 X163.06 Y104.206 E.02458
G1 X163.697 Y104.541 E.02454
G1 X164.237 Y105.019 E.02459
G1 X164.646 Y105.611 E.02453
G1 X164.901 Y106.285 E.02457
G1 X164.988 Y107 E.02456
G1 X164.901 Y107.715 E.02456
G1 X164.646 Y108.389 E.02457
G1 X164.271 Y108.932 E.0225
G1 X164.271 Y108.932 F10800
G1 X163.956 Y108.732
G1 F1200
G1 X163.484 Y109.15 E.0215
G1 X162.926 Y109.443 E.02149
G1 X162.315 Y109.594 E.02146
G1 X161.685 Y109.594 E.02148
G1 X161.074 Y109.443 E.02146
G1 X160.516 Y109.15 E.02149
G1 X160.045 Y108.732 E.02147
G1 X159.687 Y108.214 E.02147
G1 X159.463 Y107.625 E.02149
G1 X159.387 Y107 E.02147
G1 X159.463 Y106.375 E.02147
G1 X159.687 Y105.786 E.02149
G1 X160.045 Y105.268 E.02147
G1 X160.516 Y104.85 E.02147
G1 X161.074 Y104.557 E.02149
G1 X161.685 Y104.406 E.02146
G1 X162.315 Y104.406 E.02148
G1 X162.926 Y104.557 E.02146
G1 X163.484 Y104.85 E.02149
G1 X163.956 Y105.268 E.0215
G1 X164.313 Y105.786 E.02145
G1 X164.537 Y106.375 E.02149
G1 X164.613 Y107 E.02147
G1 X164.537 Y107.625 E.02147
G1 X164.313 Y108.214 E.02149
G1 X163.99 Y108.683 E.01942
G1 X163.99 Y108.683 F10800
G1 X163.674 Y108.483
G1 F1200
G1 X163.271 Y108.841 E.01838
G1 X162.793 Y109.092 E.01841
G1 X162.27 Y109.221 E.01837
G1 X161.73 Y109.221 E.01841
G1 X161.207 Y109.092 E.01837
G1 X160.729 Y108.841 E.01841
G1 X160.326 Y108.483 E.01838
G1 X160.019 Y108.04 E.01838
G1 X159.828 Y107.535 E.01841
G1 X159.763 Y107 E.01838
G1 X159.828 Y106.465 E.01838
G1 X160.019 Y105.96 E.01841
G1 X160.326 Y105.517 E.01838
G1 X160.729 Y105.159 E.01838
G1 X161.207 Y104.908 E.01841
G1 X161.73 Y104.779 E.01837
G1 X162.27 Y104.779 E.01841
G1 X162.793 Y104.908 E.01837
G1 X163.271 Y105.159 E.01841
G1 X163.674 Y105.517 E.01838
G1 X163.981 Y105.96 E.01838
G1 X164.172 Y106.465 E.01841
G1 X164.237 Y107 E.01838
G1 X164.172 Y107.535 E.01838
G1 X163.981 Y108.04 E.01841
G1 X163.709 Y108.434 E.01632
G1 X163.709 Y108.434 F10800
G1 X163.393 Y108.234
;TYPE:External perimeter
G1 F1200
G1 X163.057 Y108.532 E.01531
G1 X162.66 Y108.741 E.0153
G1 X162.224 Y108.848 E.01531
G1 X161.776 Y108.848 E.01528
G1 X161.34 Y108.741 E.01531
G1 X160.943 Y108.532 E.0153
G1 X160.607 Y108.234 E.01531
G1 X160.352 Y107.865 E.01529
G1 X160.193 Y107.445 E.01531
G1 X160.138 Y107 E.01529
G1 X160.193 Y106.555 E.01529
G1 X160.352 Y106.135 E.01531
G1 X160.607 Y105.766 E.01529
G1 X160.943 Y105.468 E.01531
G1 X161.34 Y105.259 E.0153
G1 X161.776 Y105.152 E.01531
G1 X162.224 Y105.152 E.01528
G1 X162.66 Y105.259 E.01531
G1 X163.057 Y105.468 E.0153
G1 X163.393 Y105.766 E.01531
G1 X163.648 Y106.135 E.01529
G1 X163.807 Y106.555 E.01531
G1 X163.862 Y107 E.01529
G1 X163.807 Y107.445 E.01529
G1 X163.648 Y107.865 E.01531
G1 X163.427 Y108.185 E.01326
;WIPE_START
G1 F8640
G1 X163.393 Y108.234 E-.01377
G1 X163.057 Y108.532 E-.1037
G1 X162.66 Y108.741 E-.1036
G1 X162.224 Y108.848 E-.10366
G1 X161.776 Y108.848 E-.10344
G1 X161.34 Y108.741 E-.10366
G1 X160.943 Y108.532 E-.1036
G1 X160.607 Y108.234 E-.1037
G1 X160.457 Y108.017 E-.06087
;WIPE_END
G1 Z.42 F10800
G1 X161.658 Y90.183
G1 Z.22
G1 E.8 F2100
;TYPE:Perimeter
G1 F1200
G1 X162.342 Y90.183 E.02332
G1 X162.508 Y90.224 E.00583
G1 X163.006 Y90.346 E.01748
G1 X163.612 Y90.664 E.02334
G1 X164.124 Y91.118 E.02333
G1 X164.513 Y91.681 E.02333
G1 X164.756 Y92.321 E.02334
G1 X164.817 Y92.83 E.01748
G1 X164.838 Y93 E.00584
G1 X164.756 Y93.679 E.02332
G1 X164.513 Y94.319 E.02334
G1 X164.124 Y94.882 E.02333
G1 X163.612 Y95.336 E.02333
G1 X163.006 Y95.654 E.02334
G1 X162.342 Y95.817 E.02331
G1 X161.658 Y95.817 E.02332
G1 X160.994 Y95.654 E.02331
G1 X160.388 Y95.336 E.02334
G1 X159.876 Y94.882 E.02333
G1 X159.487 Y94.319 E.02333
G1 X159.244 Y93.679 E.02334
G1 X159.162 Y93 E.02332
G1 X159.244 Y92.321 E.02332
G1 X159.487 Y91.681 E.02334
G1 X159.876 Y91.118 E.02333
G1 X160.388 Y90.664 E.02333
G1 X160.994 Y90.346 E.02334
G1 X161.6 Y90.197 E.02128
G1 X161.6 Y90.197 F10800
G1 X161.703 Y90.555
G1 F1200
G1 X162.297 Y90.555 E.02025
G1 X162.419 Y90.586 E.00429
G1 X162.873 Y90.697 E.01594
G1 X163.399 Y90.973 E.02025
G1 X163.843 Y91.367 E.02024
G1 X164.181 Y91.856 E.02027
G1 X164.391 Y92.411 E.02023
G1 X164.447 Y92.875 E.01594
G1 X164.463 Y93 E.0043
G1 X164.391 Y93.589 E.02023
G1 X164.181 Y94.144 E.02023
G1 X163.843 Y94.633 E.02027
G1 X163.399 Y95.027 E.02024
G1 X162.873 Y95.303 E.02025
G1 X162.297 Y95.445 E.02023
G1 X161.703 Y95.445 E.02025
G1 X161.127 Y95.303 E.02023
G1 X160.601 Y95.027 E.02025
G1 X160.157 Y94.633 E.02024
M73 P2 R20
G1 X159.819 Y94.144 E.02027
G1 X159.609 Y93.589 E.02023
G1 X159.537 Y93 E.02023
G1 X159.609 Y92.411 E.02023
G1 X159.819 Y91.856 E.02023
G1 X160.157 Y91.367 E.02027
G1 X160.601 Y90.973 E.02024
G1 X161.127 Y90.697 E.02025
G1 X161.645 Y90.57 E.01819
G1 X161.645 Y90.57 F10800
G1 X161.748 Y90.928
G1 F1200
G1 X162.252 Y90.928 E.01718
G1 X162.33 Y90.947 E.00274
G1 X162.74 Y91.049 E.01441
G1 X163.186 Y91.282 E.01716
G1 X163.562 Y91.616 E.01715
G1 X163.848 Y92.03 E.01716
G1 X164.026 Y92.501 E.01717
G1 X164.077 Y92.92 E.01439
G1 X164.087 Y93 E.00275
G1 X164.026 Y93.499 E.01714
G1 X163.848 Y93.97 E.01717
G1 X163.562 Y94.384 E.01716
G1 X163.186 Y94.718 E.01715
G1 X162.74 Y94.951 E.01716
G1 X162.252 Y95.072 E.01714
G1 X161.748 Y95.072 E.01718
G1 X161.26 Y94.951 E.01714
G1 X160.814 Y94.718 E.01716
G1 X160.438 Y94.384 E.01715
G1 X160.152 Y93.97 E.01716
G1 X159.974 Y93.499 E.01717
G1 X159.913 Y93 E.01714
G1 X159.974 Y92.501 E.01714
G1 X160.152 Y92.03 E.01717
G1 X160.438 Y91.616 E.01716
G1 X160.814 Y91.282 E.01715
G1 X161.26 Y91.049 E.01716
G1 X161.69 Y90.943 E.0151
G1 X161.69 Y90.943 F10800
G1 X161.794 Y91.301
;TYPE:External perimeter
G1 F1200
G1 X162.206 Y91.301 E.01405
G1 X162.241 Y91.309 E.00122
G1 X162.607 Y91.4 E.01286
G1 X162.972 Y91.591 E.01405
G1 X163.281 Y91.865 E.01408
G1 X163.516 Y92.205 E.01409
G1 X163.662 Y92.59 E.01404
G1 X163.707 Y92.965 E.01288
G1 X163.712 Y93 E.00121
G1 X163.662 Y93.41 E.01408
G1 X163.516 Y93.795 E.01404
G1 X163.281 Y94.135 E.01409
G1 X162.972 Y94.409 E.01408
G1 X162.607 Y94.6 E.01405
G1 X162.206 Y94.699 E.01408
G1 X161.794 Y94.699 E.01405
G1 X161.393 Y94.6 E.01408
G1 X161.028 Y94.409 E.01405
G1 X160.719 Y94.135 E.01408
G1 X160.484 Y93.795 E.01409
G1 X160.338 Y93.41 E.01404
G1 X160.288 Y93 E.01408
G1 X160.338 Y92.59 E.01408
G1 X160.484 Y92.205 E.01404
G1 X160.719 Y91.865 E.01409
G1 X161.028 Y91.591 E.01408
G1 X161.393 Y91.4 E.01405
G1 X161.735 Y91.315 E.01202
;WIPE_START
G1 F8640
G1 X161.794 Y91.301 E-.014
G1 X162.206 Y91.301 E-.09513
G1 X162.241 Y91.309 E-.00829
G1 X162.607 Y91.4 E-.08708
G1 X162.972 Y91.591 E-.09512
G1 X163.281 Y91.865 E-.09536
G1 X163.516 Y92.205 E-.09543
G1 X163.662 Y92.59 E-.09508
G1 X163.707 Y92.965 E-.08721
G1 X163.712 Y93 E-.00816
G1 X163.662 Y93.41 E-.09537
G1 X163.625 Y93.506 E-.02377
;WIPE_END
G1 Z.42 F10800
G1 X140.124 Y91.118
G1 Z.22
G1 E.8 F2100
;TYPE:Perimeter
G1 F1200
G1 X140.513 Y91.681 E.02333
G1 X140.756 Y92.321 E.02334
G1 X140.817 Y92.83 E.01748
G1 X140.838 Y93 E.00584
G1 X140.756 Y93.679 E.02332
G1 X140.513 Y94.319 E.02334
G1 X140.124 Y94.882 E.02333
G1 X139.612 Y95.336 E.02333
G1 X139.006 Y95.654 E.02334
G1 X138.342 Y95.817 E.02331
G1 X137.658 Y95.817 E.02332
G1 X136.994 Y95.654 E.02331
G1 X136.388 Y95.336 E.02334
G1 X135.876 Y94.882 E.02333
G1 X135.487 Y94.319 E.02333
G1 X135.244 Y93.679 E.02334
G1 X135.162 Y93 E.02332
G1 X135.244 Y92.321 E.02332
G1 X135.487 Y91.681 E.02334
G1 X135.876 Y91.118 E.02333
G1 X136.388 Y90.664 E.02333
G1 X136.994 Y90.346 E.02334
G1 X137.658 Y90.183 E.02331
G1 X138.342 Y90.183 E.02332
G1 X138.508 Y90.224 E.00583
G1 X139.006 Y90.346 E.01748
G1 X139.612 Y90.664 E.02334
G1 X140.079 Y91.078 E.02128
G1 X140.079 Y91.078 F10800
G1 X139.843 Y91.367
G1 F1200
G1 X140.181 Y91.856 E.02027
G1 X140.391 Y92.411 E.02023
G1 X140.447 Y92.875 E.01594
G1 X140.463 Y93 E.0043
G1 X140.391 Y93.589 E.02023
G1 X140.181 Y94.144 E.02023
G1 X139.843 Y94.633 E.02027
G1 X139.399 Y95.027 E.02024
G1 X138.873 Y95.303 E.02025
G1 X138.297 Y95.445 E.02023
G1 X137.703 Y95.445 E.02025
G1 X137.127 Y95.303 E.02023
G1 X136.601 Y95.027 E.02025
G1 X136.157 Y94.633 E.02024
G1 X135.819 Y94.144 E.02027
G1 X135.609 Y93.589 E.02023
G1 X135.537 Y93 E.02023
G1 X135.609 Y92.411 E.02023
G1 X135.819 Y91.856 E.02023
G1 X136.157 Y91.367 E.02027
G1 X136.601 Y90.973 E.02024
G1 X137.127 Y90.697 E.02025
G1 X137.703 Y90.555 E.02023
G1 X138.297 Y90.555 E.02025
G1 X138.419 Y90.586 E.00429
G1 X138.873 Y90.697 E.01594
G1 X139.399 Y90.973 E.02025
G1 X139.798 Y91.327 E.01819
G1 X139.798 Y91.327 F10800
G1 X139.562 Y91.616
G1 F1200
G1 X139.848 Y92.03 E.01716
G1 X140.026 Y92.501 E.01717
G1 X140.077 Y92.92 E.01439
G1 X140.087 Y93 E.00275
G1 X140.026 Y93.499 E.01714
G1 X139.848 Y93.97 E.01717
G1 X139.562 Y94.384 E.01716
G1 X139.186 Y94.718 E.01715
G1 X138.74 Y94.951 E.01716
G1 X138.252 Y95.072 E.01714
G1 X137.748 Y95.072 E.01718
G1 X137.26 Y94.951 E.01714
G1 X136.814 Y94.718 E.01716
G1 X136.438 Y94.384 E.01715
G1 X136.152 Y93.97 E.01716
G1 X135.974 Y93.499 E.01717
G1 X135.913 Y93 E.01714
G1 X135.974 Y92.501 E.01714
G1 X136.152 Y92.03 E.01717
G1 X136.438 Y91.616 E.01716
G1 X136.814 Y91.282 E.01715
G1 X137.26 Y91.049 E.01716
G1 X137.748 Y90.928 E.01714
G1 X138.252 Y90.928 E.01718
G1 X138.33 Y90.947 E.00274
G1 X138.74 Y91.049 E.01441
G1 X139.186 Y91.282 E.01716
G1 X139.517 Y91.576 E.0151
G1 X139.517 Y91.576 F10800
G1 X139.281 Y91.865
;TYPE:External perimeter
G1 F1200
G1 X139.516 Y92.205 E.01409
G1 X139.662 Y92.59 E.01404
G1 X139.707 Y92.965 E.01288
G1 X139.712 Y93 E.00121
G1 X139.662 Y93.41 E.01408
G1 X139.516 Y93.795 E.01404
G1 X139.281 Y94.135 E.01409
G1 X138.972 Y94.409 E.01408
G1 X138.607 Y94.6 E.01405
G1 X138.206 Y94.699 E.01408
G1 X137.794 Y94.699 E.01405
G1 X137.393 Y94.6 E.01408
G1 X137.028 Y94.409 E.01405
G1 X136.719 Y94.135 E.01408
G1 X136.484 Y93.795 E.01409
G1 X136.338 Y93.41 E.01404
G1 X136.288 Y93 E.01408
G1 X136.338 Y92.59 E.01408
G1 X136.484 Y92.205 E.01404
G1 X136.719 Y91.865 E.01409
G1 X137.028 Y91.591 E.01408
G1 X137.393 Y91.4 E.01405
G1 X137.794 Y91.301 E.01408
G1 X138.206 Y91.301 E.01405
G1 X138.241 Y91.309 E.00122
G1 X138.607 Y91.4 E.01286
G1 X138.972 Y91.591 E.01405
G1 X139.236 Y91.825 E.01203
;WIPE_START
G1 F8640
G1 X139.281 Y91.865 E-.0139
G1 X139.516 Y92.205 E-.09543
G1 X139.662 Y92.59 E-.09508
G1 X139.707 Y92.965 E-.08721
G1 X139.712 Y93 E-.00816
G1 X139.662 Y93.41 E-.09537
G1 X139.516 Y93.795 E-.09508
G1 X139.281 Y94.135 E-.09543
G1 X138.972 Y94.409 E-.09536
G1 X138.607 Y94.6 E-.09512
G1 X138.507 Y94.625 E-.02386
;WIPE_END
G1 Z.42 F10800
G1 X135.763 Y108.982
G1 Z.22
G1 E.8 F2100
;TYPE:Perimeter
G1 F1200
G1 X135.354 Y108.389 E.02456
G1 X135.099 Y107.715 E.02457
G1 X135.012 Y107 E.02456
G1 X135.099 Y106.285 E.02456
G1 X135.354 Y105.611 E.02457
G1 X135.763 Y105.019 E.02453
G1 X136.303 Y104.541 E.02459
G1 X136.94 Y104.206 E.02454
G1 X137.64 Y104.034 E.02458
G1 X138.36 Y104.034 E.02455
G1 X139.06 Y104.206 E.02458
G1 X139.697 Y104.541 E.02454
G1 X140.237 Y105.019 E.02459
G1 X140.646 Y105.611 E.02453
G1 X140.901 Y106.285 E.02457
G1 X140.988 Y107 E.02456
G1 X140.901 Y107.715 E.02456
G1 X140.646 Y108.389 E.02457
G1 X140.237 Y108.981 E.02453
G1 X139.697 Y109.459 E.02459
G1 X139.06 Y109.794 E.02454
G1 X138.36 Y109.966 E.02458
G1 X137.64 Y109.966 E.02455
G1 X136.94 Y109.794 E.02458
G1 X136.303 Y109.459 E.02454
G1 X135.808 Y109.021 E.02254
G1 X135.808 Y109.021 F10800
G1 X136.045 Y108.732
G1 F1200
G1 X135.687 Y108.214 E.02147
G1 X135.463 Y107.625 E.02149
G1 X135.387 Y107 E.02147
G1 X135.463 Y106.375 E.02147
G1 X135.687 Y105.786 E.02149
G1 X136.045 Y105.268 E.02147
G1 X136.516 Y104.85 E.02147
G1 X137.074 Y104.557 E.02149
G1 X137.685 Y104.406 E.02146
G1 X138.315 Y104.406 E.02148
G1 X138.926 Y104.557 E.02146
G1 X139.484 Y104.85 E.02149
G1 X139.956 Y105.268 E.0215
G1 X140.313 Y105.786 E.02145
G1 X140.537 Y106.375 E.02149
G1 X140.613 Y107 E.02147
G1 X140.537 Y107.625 E.02147
G1 X140.313 Y108.214 E.02149
G1 X139.956 Y108.732 E.02145
G1 X139.484 Y109.15 E.0215
G1 X138.926 Y109.443 E.02149
G1 X138.315 Y109.594 E.02146
G1 X137.685 Y109.594 E.02148
G1 X137.074 Y109.443 E.02146
G1 X136.516 Y109.15 E.02149
G1 X136.089 Y108.772 E.01944
G1 X136.089 Y108.772 F10800
G1 X136.326 Y108.483
G1 F1200
G1 X136.019 Y108.04 E.01838
G1 X135.828 Y107.535 E.01841
G1 X135.763 Y107 E.01838
G1 X135.828 Y106.465 E.01838
G1 X136.019 Y105.96 E.01841
G1 X136.326 Y105.517 E.01838
G1 X136.729 Y105.159 E.01838
G1 X137.207 Y104.908 E.01841
G1 X137.73 Y104.779 E.01837
G1 X138.27 Y104.779 E.01841
G1 X138.793 Y104.908 E.01837
G1 X139.271 Y105.159 E.01841
G1 X139.674 Y105.517 E.01838
G1 X139.981 Y105.96 E.01838
G1 X140.172 Y106.465 E.01841
G1 X140.237 Y107 E.01838
G1 X140.172 Y107.535 E.01838
G1 X139.981 Y108.04 E.01841
G1 X139.674 Y108.483 E.01838
G1 X139.271 Y108.841 E.01838
G1 X138.793 Y109.092 E.01841
G1 X138.27 Y109.221 E.01837
G1 X137.73 Y109.221 E.01841
G1 X137.207 Y109.092 E.01837
G1 X136.729 Y108.841 E.01841
G1 X136.37 Y108.523 E.01635
G1 X136.37 Y108.523 F10800
G1 X136.607 Y108.234
;TYPE:External perimeter
G1 F1200
G1 X136.352 Y107.865 E.01529
G1 X136.193 Y107.445 E.01531
G1 X136.138 Y107 E.01529
G1 X136.193 Y106.555 E.01529
G1 X136.352 Y106.135 E.01531
G1 X136.607 Y105.766 E.01529
G1 X136.943 Y105.468 E.01531
G1 X137.34 Y105.259 E.0153
G1 X137.776 Y105.152 E.01531
G1 X138.224 Y105.152 E.01528
G1 X138.66 Y105.259 E.01531
G1 X139.057 Y105.468 E.0153
G1 X139.393 Y105.766 E.01531
G1 X139.648 Y106.135 E.01529
G1 X139.807 Y106.555 E.01531
G1 X139.862 Y107 E.01529
G1 X139.807 Y107.445 E.01529
G1 X139.648 Y107.865 E.01531
G1 X139.393 Y108.234 E.01529
G1 X139.057 Y108.532 E.01531
G1 X138.66 Y108.741 E.0153
G1 X138.224 Y108.848 E.01531
G1 X137.776 Y108.848 E.01528
G1 X137.34 Y108.741 E.01531
G1 X136.943 Y108.532 E.0153
G1 X136.652 Y108.274 E.01326
;WIPE_START
G1 F8640
G1 X136.607 Y108.234 E-.0139
