; generated by PrusaSlicer 2.8.0+win64 on 2024-07-12 at 11:43:36 UTC


;
;

;
;
; 

; external perimeters extrusion width = 0.45mm
; perimeters extrusion width = 0.45mm
; infill extrusion width = 0.45mm
; solid infill extrusion width = 0.45mm
; top infill extrusion width = 0.40mm
; first layer extrusion width = 0.42mm

M73 P0 R38

; printing object Equerre_2-Corps id:0 copy 0
; stop printing object Equerre_2-Corps id:0 copy 0

;TYPE:Custom
M104 S215 ; set extruder temp
M140 S74 ; set bed temp
M190 S74 ; wait for bed temp
M109 S215 ; wait for extruder temp
G1 Z5 F15000 ; lift
G1 X299 Y160 F4500 ; move to prime
G1 Z0.29 F4500 ; get ready to prime
G92 E0 ; reset extrusion distance
G1 Y150 E9.0 F600 ; prime nozzle
G1 Y110 E12.5 F600 ; prime nozzle
G1 Y80 F5000 ; quick wipe
G21 ; set units to millimeters
G90 ; use absolute coordinates
M83 ; use relative distances for extrusion
M900 K0.05 ; Filament gcode LA 1.5
M900 K30 ; Filament gcode LA 1.0
M107
;LAYER_CHANGE
;Z:0.22
;HEIGHT:0.22
G1 E-.8 F2100
G1 Z.42 F10800
G1 X138.333 Y85.639
G1 Z.22
G1 E.8 F2100
M204 S1000
;TYPE:Skirt/Brim
;WIDTH:0.42
G1 F1200
G1 X139.389 Y84.694 E.04832
G1 X140.5 Y84.441 E.03885
G1 X159.5 Y84.441 E.64785
G1 X160.861 Y84.833 E.04829
G1 X161.806 Y85.889 E.04832
G1 X162.059 Y87 E.03885
G1 X162.059 Y113 E.88653
G1 X161.667 Y114.361 E.04829
G1 X160.611 Y115.306 E.04832
G1 X159.5 Y115.559 E.03885
G1 X140.5 Y115.559 E.64785
G1 X139.139 Y115.167 E.04829
G1 X138.194 Y114.111 E.04832
G1 X137.941 Y113 E.03885
G1 X137.941 Y87 E.88653
G1 X138.316 Y85.696 E.04626
G1 X138.316 Y85.696 F10800
G1 X138.686 Y85.812
G1 F1200
G1 X138.704 Y85.752 E.00214
G1 X139.737 Y84.951 E.04457
G1 X140.5 Y84.814 E.02643
G1 X159.5 Y84.814 E.64785
G1 X160.748 Y85.204 E.04458
G1 X161.549 Y86.237 E.04457
M73 P0 R37
G1 X161.686 Y87 E.02643
G1 X161.686 Y113 E.88653
G1 X161.296 Y114.248 E.04458
G1 X160.263 Y115.049 E.04457
G1 X159.5 Y115.186 E.02643
G1 X140.5 Y115.186 E.64785
G1 X139.252 Y114.796 E.04458
G1 X138.451 Y113.763 E.04457
G1 X138.314 Y113 E.02643
G1 X138.314 Y87 E.88653
G1 X138.668 Y85.869 E.04041
;WIPE_START
G1 F8640
G1 X138.686 Y85.812 E-.0138
G1 X138.704 Y85.752 E-.01446
G1 X139.737 Y84.951 E-.30183
G1 X140.5 Y84.814 E-.179
G1 X141.76 Y84.814 E-.29091
;WIPE_END
G1 Z.42 F10800
; printing object Equerre_2-Corps id:0 copy 0
G1 X146.172 Y105.221
G1 Z.22
M73 P1 R37
G1 E.8 F2100
;TYPE:Perimeter
G1 F1200
G1 X146.172 Y92.776 E.42434
G1 X146.483 Y91.88 E.03234
G1 X146.946 Y91.138 E.02982
G1 X147.564 Y90.518 E.02985
G1 X148.305 Y90.051 E.02987
G1 X149.13 Y89.761 E.02982
G1 X149.835 Y89.682 E.02419
G1 X150 Y89.663 E.00566
G1 X150.87 Y89.761 E.02985
G1 X151.695 Y90.051 E.02982
G1 X152.436 Y90.518 E.02987
G1 X153.054 Y91.138 E.02985
G1 X153.517 Y91.88 E.02982
G1 X153.828 Y92.776 E.03234
G1 X153.828 Y105.224 E.42444
G1 X153.517 Y106.12 E.03234
G1 X153.054 Y106.862 E.02982
G1 X152.436 Y107.482 E.02985
G1 X151.695 Y107.949 E.02987
G1 X150.87 Y108.239 E.02982
G1 X150 Y108.337 E.02985
G1 X149.13 Y108.239 E.02985
G1 X148.305 Y107.949 E.02982
G1 X147.564 Y107.482 E.02987
G1 X146.946 Y106.862 E.02985
G1 X146.483 Y106.12 E.02982
G1 X146.19 Y105.278 E.0304
G1 X146.19 Y105.278 F10800
G1 X146.544 Y105.159
G1 F1200
G1 X146.544 Y92.839 E.42008
G1 X146.821 Y92.042 E.02877
G1 X147.24 Y91.371 E.02697
G1 X147.798 Y90.811 E.02696
G1 X148.468 Y90.389 E.027
G1 X149.214 Y90.127 E.02696
G1 X149.877 Y90.052 E.02275
G1 X150 Y90.038 E.00422
G1 X150.786 Y90.127 E.02697
G1 X151.532 Y90.389 E.02696
G1 X152.202 Y90.811 E.027
G1 X152.76 Y91.371 E.02696
G1 X153.179 Y92.042 E.02697
G1 X153.456 Y92.839 E.02877
G1 X153.456 Y105.161 E.42015
G1 X153.179 Y105.958 E.02877
G1 X152.76 Y106.629 E.02697
G1 X152.202 Y107.189 E.02696
G1 X151.532 Y107.611 E.027
G1 X150.786 Y107.873 E.02696
G1 X150 Y107.962 E.02697
G1 X149.214 Y107.873 E.02697
G1 X148.468 Y107.611 E.02696
G1 X147.798 Y107.189 E.027
G1 X147.24 Y106.629 E.02696
G1 X146.821 Y105.958 E.02697
G1 X146.563 Y105.216 E.02679
G1 X146.563 Y105.216 F10800
G1 X146.917 Y105.098
G1 F1200
G1 X146.917 Y92.902 E.41585
G1 X147.159 Y92.204 E.02519
G1 X147.534 Y91.604 E.02413
G1 X148.033 Y91.104 E.02409
G1 X148.631 Y90.727 E.0241
G1 X149.298 Y90.493 E.0241
G1 X149.919 Y90.423 E.02131
G1 X150 Y90.414 E.00278
G1 X150.702 Y90.493 E.02409
G1 X151.369 Y90.727 E.0241
G1 X151.967 Y91.104 E.0241
G1 X152.466 Y91.604 E.02409
G1 X152.841 Y92.203 E.0241
G1 X153.083 Y92.902 E.02522
G1 X153.083 Y105.098 E.41585
G1 X152.841 Y105.796 E.02519
G1 X152.466 Y106.396 E.02413
G1 X151.967 Y106.896 E.02409
G1 X151.369 Y107.273 E.0241
G1 X150.702 Y107.507 E.0241
G1 X150 Y107.586 E.02409
G1 X149.298 Y107.507 E.02409
G1 X148.631 Y107.273 E.0241
G1 X148.033 Y106.896 E.0241
G1 X147.534 Y106.396 E.02409
G1 X147.159 Y105.796 E.02413
G1 X146.937 Y105.155 E.02313
G1 X146.937 Y105.155 F10800
G1 X147.29 Y105.035
;TYPE:External perimeter
G1 F1200
G1 X147.29 Y92.965 E.41155
G1 X147.498 Y92.365 E.02165
G1 X147.828 Y91.837 E.02123
G1 X148.267 Y91.396 E.02122
G1 X148.794 Y91.065 E.02122
G1 X149.381 Y90.858 E.02122
G1 X149.961 Y90.793 E.0199
G1 X150 Y90.789 E.00134
G1 X150.619 Y90.858 E.02124
G1 X151.206 Y91.065 E.02122
G1 X151.733 Y91.396 E.02122
G1 X152.172 Y91.837 E.02122
G1 X152.502 Y92.365 E.02123
G1 X152.71 Y92.965 E.02165
G1 X152.71 Y105.035 E.41155
G1 X152.502 Y105.635 E.02165
G1 X152.172 Y106.162 E.0212
G1 X151.733 Y106.604 E.02124
G1 X151.206 Y106.935 E.02122
G1 X150.619 Y107.141 E.02121
G1 X150 Y107.211 E.02124
G1 X149.381 Y107.141 E.02124
G1 X148.794 Y106.935 E.02121
G1 X148.267 Y106.604 E.02122
G1 X147.828 Y106.162 E.02124
G1 X147.498 Y105.635 E.0212
G1 X147.31 Y105.092 E.01959
;WIPE_START
G1 F8640
G1 X147.29 Y105.035 E-.01395
G1 X147.29 Y101.631 E-.78605
;WIPE_END
G1 Z.42 F10800
G1 X158.172 Y88.328
G1 Z.22
G1 E.8 F2100
;TYPE:Perimeter
G1 F1200
G1 X158.172 Y111.672 E.79596
G1 X141.828 Y111.672 E.55728
G1 X141.828 Y88.328 E.79596
G1 X158.112 Y88.328 E.55524
G1 X158.112 Y88.328 F10800
G1 X158.544 Y87.956
G1 F1200
G1 X158.544 Y112.044 E.82133
G1 X141.456 Y112.044 E.58265
G1 X141.456 Y87.956 E.82133
G1 X158.484 Y87.956 E.58061
G1 X158.484 Y87.956 F10800
G1 X158.917 Y87.583
G1 F1200
G1 X158.917 Y112.417 E.84677
G1 X141.083 Y112.417 E.60809
G1 X141.083 Y87.583 E.84677
G1 X158.857 Y87.583 E.60604
G1 X158.857 Y87.583 F10800
G1 X159.29 Y87.21
;TYPE:External perimeter
G1 F1200
G1 X159.29 Y112.79 E.87221
G1 X140.71 Y112.79 E.63353
G1 X140.71 Y87.21 E.87221
M73 P2 R37
G1 X159.23 Y87.21 E.63148
;WIPE_START
G1 F8640
G1 X159.29 Y87.21 E-.01385
G1 X159.29 Y90.615 E-.78615
;WIPE_END
G1 Z.42 F10800
G1 X157.3 Y88.44
G1 Z.22
G1 E.8 F2100
;TYPE:Solid infill
;WIDTH:0.422874
G1 F1200
G1 X157.892 Y89.032 E.02877
G1 X157.892 Y89.563 E.01825
G1 X156.937 Y88.608 E.04641
G1 X156.405 Y88.608 E.01828
G1 X157.892 Y90.095 E.07226
G1 X157.892 Y90.626 E.01825
G1 X155.874 Y88.608 E.09806
G1 X155.343 Y88.608 E.01825
G1 X157.892 Y91.157 E.12386
G1 X157.892 Y91.688 E.01825
G1 X154.812 Y88.608 E.14966
G1 X154.28 Y88.608 E.01828
G1 X157.892 Y92.22 E.17552
G1 X157.892 Y92.751 E.01825
G1 X153.749 Y88.608 E.20132
G1 X153.218 Y88.608 E.01825
G1 X157.892 Y93.282 E.22712
G1 X157.892 Y93.814 E.01828
G1 X152.686 Y88.608 E.25297
G1 X152.155 Y88.608 E.01825
G1 X157.892 Y94.345 E.27877
G1 X157.892 Y94.876 E.01825
G1 X151.624 Y88.608 E.30458
G1 X151.093 Y88.608 E.01825
G1 X157.892 Y95.407 E.33038
G1 X157.892 Y95.939 E.01828
G1 X153.803 Y91.849 E.19872
G1 X153.771 Y91.758 E.00331
G1 X153.274 Y90.963 E.03221
G1 X152.612 Y90.298 E.03224
G1 X151.818 Y89.798 E.03224
G1 X151.715 Y89.762 E.00375
G1 X150.561 Y88.608 E.05608
G1 X150.03 Y88.608 E.01825
G1 X150.906 Y89.484 E.04257
G1 X150.307 Y89.417 E.02071
G1 X149.499 Y88.608 E.03929
G1 X148.968 Y88.608 E.01825
G1 X149.768 Y89.408 E.03887
G1 X149.29 Y89.462 E.01653
G1 X148.436 Y88.608 E.0415
G1 X147.905 Y88.608 E.01825
G1 X148.858 Y89.561 E.04631
G1 X148.465 Y89.699 E.01431
G1 X147.374 Y88.608 E.05301
G1 X146.843 Y88.608 E.01825
G1 X148.09 Y89.856 E.06062
G1 X147.764 Y90.061 E.01323
G1 X146.311 Y88.608 E.0706
G1 X145.78 Y88.608 E.01825
G1 X147.438 Y90.266 E.08057
G1 X147.388 Y90.298 E.00204
G1 X147.164 Y90.523 E.01091
G1 X145.249 Y88.608 E.09305
G1 X144.717 Y88.608 E.01828
G1 X146.899 Y90.789 E.106
G1 X146.726 Y90.963 E.00843
G1 X146.655 Y91.077 E.00461
G1 X144.186 Y88.608 E.11997
G1 X143.655 Y88.608 E.01825
G1 X146.45 Y91.403 E.13582
G1 X146.246 Y91.73 E.01324
G1 X143.124 Y88.608 E.15171
G1 X142.592 Y88.608 E.01828
G1 X146.104 Y92.119 E.17063
G1 X145.967 Y92.514 E.01437
G1 X142.108 Y88.655 E.18752
G1 X142.108 Y89.186 E.01825
G1 X145.892 Y92.97 E.18387
G1 X145.892 Y93.501 E.01825
G1 X142.108 Y89.717 E.18387
G1 X142.108 Y90.249 E.01828
G1 X145.892 Y94.033 E.18387
G1 X145.892 Y94.564 E.01825
G1 X142.108 Y90.78 E.18387
G1 X142.108 Y91.311 E.01825
G1 X145.892 Y95.095 E.18387
G1 X145.892 Y95.626 E.01825
G1 X142.108 Y91.842 E.18387
G1 X142.108 Y92.374 E.01828
G1 X145.892 Y96.158 E.18387
G1 X145.892 Y96.689 E.01825
G1 X142.108 Y92.905 E.18387
G1 X142.108 Y93.436 E.01825
G1 X145.892 Y97.22 E.18387
G1 X145.892 Y97.752 E.01828
G1 X142.108 Y93.967 E.1839
G1 X142.108 Y94.499 E.01828
G1 X145.892 Y98.283 E.18387
G1 X145.892 Y98.814 E.01825
G1 X142.108 Y95.03 E.18387
G1 X142.108 Y95.561 E.01825
G1 X145.892 Y99.345 E.18387
G1 X145.892 Y99.877 E.01828
G1 X142.108 Y96.092 E.1839
G1 X142.108 Y96.624 E.01828
G1 X145.892 Y100.408 E.18387
G1 X145.892 Y100.939 E.01825
G1 X142.108 Y97.155 E.18387
G1 X142.108 Y97.686 E.01825
G1 X145.892 Y101.47 E.18387
G1 X145.892 Y102.002 E.01828
G1 X142.108 Y98.218 E.18387
G1 X142.108 Y98.749 E.01825
G1 X145.892 Y102.533 E.18387
G1 X145.892 Y103.064 E.01825
G1 X142.108 Y99.28 E.18387
G1 X142.108 Y99.811 E.01825
G1 X145.892 Y103.595 E.18387
G1 X145.892 Y104.127 E.01828
G1 X142.108 Y100.343 E.18387
G1 X142.108 Y100.874 E.01825
G1 X145.892 Y104.658 E.18387
G1 X145.892 Y105.189 E.01825
G1 X141.94 Y101.237 E.19204
;WIPE_START
G1 F8640
G1 X144.39 Y103.687 E-.8
;WIPE_END
G1 Z.42 F10800
G1 X158.06 Y96.638
G1 Z.22
G1 E.8 F2100
G1 F1200
G1 X154.085 Y92.663 E.19316
G1 X154.108 Y92.729 E.0024
G1 X154.108 Y93.217 E.01677
G1 X157.892 Y97.001 E.18387
G1 X157.892 Y97.532 E.01825
G1 X154.108 Y93.748 E.18387
G1 X154.108 Y94.28 E.01828
G1 X157.892 Y98.064 E.18387
G1 X157.892 Y98.595 E.01825
G1 X154.108 Y94.811 E.18387
G1 X154.108 Y95.342 E.01825
G1 X157.892 Y99.126 E.18387
G1 X157.892 Y99.657 E.01825
G1 X154.108 Y95.873 E.18387
G1 X154.108 Y96.405 E.01828
G1 X157.892 Y100.189 E.18387
G1 X157.892 Y100.72 E.01825
G1 X154.108 Y96.936 E.18387
G1 X154.108 Y97.467 E.01825
G1 X157.892 Y101.251 E.18387
G1 X157.892 Y101.783 E.01828
G1 X154.108 Y97.998 E.1839
G1 X154.108 Y98.53 E.01828
G1 X157.892 Y102.314 E.18387
G1 X157.892 Y102.845 E.01825
G1 X154.108 Y99.061 E.18387
G1 X154.108 Y99.592 E.01825
G1 X157.892 Y103.376 E.18387
G1 X157.892 Y103.908 E.01828
G1 X154.108 Y100.123 E.1839
G1 X154.108 Y100.655 E.01828
G1 X157.892 Y104.439 E.18387
G1 X157.892 Y104.97 E.01825
G1 X154.108 Y101.186 E.18387
G1 X154.108 Y101.717 E.01825
M73 P3 R37
G1 X157.892 Y105.501 E.18387
G1 X157.892 Y106.033 E.01828
G1 X154.108 Y102.249 E.18387
G1 X154.108 Y102.78 E.01825
G1 X157.892 Y106.564 E.18387
G1 X157.892 Y107.095 E.01825
G1 X154.108 Y103.311 E.18387
G1 X154.108 Y103.842 E.01825
G1 X157.892 Y107.626 E.18387
G1 X157.892 Y108.158 E.01828
G1 X154.108 Y104.374 E.18387
G1 X154.108 Y104.905 E.01825
G1 X157.892 Y108.689 E.18387
G1 X157.892 Y109.22 E.01825
G1 X154.065 Y105.394 E.18594
G1 X153.929 Y105.788 E.01432
G1 X157.892 Y109.752 E.1926
G1 X157.892 Y110.283 E.01825
G1 X153.792 Y106.183 E.19923
G1 X153.771 Y106.242 E.00215
G1 X153.598 Y106.52 E.01125
G1 X157.892 Y110.814 E.20866
G1 X157.892 Y111.345 E.01825
G1 X153.393 Y106.847 E.21859
G1 X153.274 Y107.037 E.0077
G1 X153.164 Y107.148 E.00537
G1 X157.408 Y111.392 E.20623
G1 X156.876 Y111.392 E.01828
G1 X152.898 Y107.414 E.1933
G1 X152.633 Y107.68 E.0129
G1 X156.345 Y111.392 E.18038
G1 X155.814 Y111.392 E.01825
G1 X152.312 Y107.891 E.17015
G1 X151.986 Y108.096 E.01323
G1 X155.282 Y111.392 E.16016
G1 X154.751 Y111.392 E.01825
G1 X151.628 Y108.269 E.15175
G1 X151.235 Y108.407 E.01431
G1 X154.22 Y111.392 E.14505
G1 X153.689 Y111.392 E.01825
G1 X150.822 Y108.525 E.13931
G1 X150.345 Y108.579 E.01649
G1 X153.157 Y111.392 E.13667
G1 X152.626 Y111.392 E.01825
G1 X149.833 Y108.599 E.13572
G1 X149.235 Y108.532 E.02068
G1 X152.095 Y111.392 E.13897
G1 X151.564 Y111.392 E.01825
G1 X148.477 Y108.306 E.14998
G1 X148.182 Y108.202 E.01075
G1 X147.388 Y107.702 E.03224
G1 X146.726 Y107.037 E.03224
G1 X146.229 Y106.242 E.03221
G1 X146.131 Y105.959 E.01029
G1 X142.108 Y101.936 E.19549
G1 X142.108 Y102.468 E.01828
G1 X151.032 Y111.392 E.43364
G1 X150.501 Y111.392 E.01825
G1 X142.108 Y102.999 E.40784
G1 X142.108 Y103.53 E.01825
G1 X149.97 Y111.392 E.38203
G1 X149.439 Y111.392 E.01825
G1 X142.108 Y104.061 E.35623
G1 X142.108 Y104.593 E.01828
M73 P3 R36
G1 X148.907 Y111.392 E.33038
G1 X148.376 Y111.392 E.01825
G1 X142.108 Y105.124 E.30458
G1 X142.108 Y105.655 E.01825
G1 X147.845 Y111.392 E.27877
G1 X147.313 Y111.392 E.01828
G1 X142.108 Y106.187 E.25292
G1 X142.108 Y106.718 E.01825
G1 X146.782 Y111.392 E.22712
G1 X146.251 Y111.392 E.01825
G1 X142.108 Y107.249 E.20132
G1 X142.108 Y107.78 E.01825
G1 X145.72 Y111.392 E.17552
G1 X145.188 Y111.392 E.01828
G1 X142.108 Y108.312 E.14966
G1 X142.108 Y108.843 E.01825
G1 X144.657 Y111.392 E.12386
G1 X144.126 Y111.392 E.01825
G1 X142.108 Y109.374 E.09806
G1 X142.108 Y109.905 E.01825
G1 X143.595 Y111.392 E.07226
G1 X143.063 Y111.392 E.01828
G1 X142.108 Y110.437 E.04641
G1 X142.108 Y110.968 E.01825
G1 X142.7 Y111.56 E.02877
M106 S84.15
;LAYER_CHANGE
;Z:0.42
;HEIGHT:0.2
;BEFORE_LAYER_CHANGE
G92 E0.0
;0.42
;WIPE_START
G1 F8640
G1 X142.108 Y110.968 E-.19332
G1 X142.108 Y110.437 E-.12261
G1 X143.063 Y111.392 E-.31185
G1 X143.595 Y111.392 E-.12284
G1 X143.444 Y111.241 E-.04938
;WIPE_END
G1 Z.42 F10800
;AFTER_LAYER_CHANGE
;0.42
M104 S210 ; set temperature
M140 S68 ; set bed temperature
; stop printing object Equerre_2-Corps id:0 copy 0
G1 Z.62
G1 X143.444 Y115.559
G1 Z.42
G1 E.8 F2100
;TYPE:Skirt/Brim
;WIDTH:0.42
G1 F3000
G1 X140.5 Y115.559 E.09231
G1 X139.139 Y115.167 E.04441
G1 X138.194 Y114.111 E.04443
G1 X137.941 Y113 E.03573
G1 X137.941 Y87 E.81521
G1 X138.333 Y85.639 E.04441
G1 X139.389 Y84.694 E.04443
G1 X140.5 Y84.441 E.03573
G1 X159.5 Y84.441 E.59573
G1 X160.861 Y84.833 E.04441
G1 X161.806 Y85.889 E.04443
G1 X162.059 Y87 E.03573
G1 X162.059 Y113 E.81521
G1 X161.667 Y114.361 E.04441
G1 X160.611 Y115.306 E.04443
G1 X159.5 Y115.559 E.03573
G1 X143.504 Y115.559 E.50154
G1 X143.504 Y115.559 F10800
G1 X143.504 Y115.186
G1 F3000
G1 X140.5 Y115.186 E.09419
G1 X139.252 Y114.796 E.041
G1 X138.451 Y113.763 E.04099
G1 X138.314 Y113 E.02431
G1 X138.314 Y87 E.81521
G1 X138.704 Y85.752 E.041
G1 X139.737 Y84.951 E.04099
G1 X140.5 Y84.814 E.02431
G1 X159.5 Y84.814 E.59573
G1 X160.748 Y85.204 E.041
G1 X161.549 Y86.237 E.04099
G1 X161.686 Y87 E.02431
G1 X161.686 Y113 E.81521
G1 X161.296 Y114.248 E.041
G1 X160.263 Y115.049 E.04099
G1 X159.5 Y115.186 E.02431
G1 X143.564 Y115.186 E.49966
;WIPE_START
G1 F8640
G1 X143.504 Y115.186 E-.01385
G1 X140.5 Y115.186 E-.69363
G1 X140.118 Y115.066 E-.09252
;WIPE_END
G1 Z.62 F10800
; printing object Equerre_2-Corps id:0 copy 0
G1 X146.054 Y105.24
G1 Z.42
G1 E.8 F2100
M204 S800
;TYPE:Perimeter
;WIDTH:0.45
G1 F3600
G1 X146.054 Y92.756 E.42257
G1 X146.376 Y91.829 E.03322
G1 X146.854 Y91.064 E.03053
G1 X147.49 Y90.425 E.03052
G1 X148.253 Y89.944 E.03053
G1 X149.104 Y89.646 E.03052
G1 X149.792 Y89.568 E.02344
G1 X150 Y89.545 E.00708
G1 X150.896 Y89.646 E.03052
G1 X151.747 Y89.944 E.03052
G1 X152.51 Y90.425 E.03053
G1 X153.146 Y91.064 E.03052
G1 X153.625 Y91.828 E.03052
G1 X153.946 Y92.756 E.03324
G1 X153.946 Y105.244 E.4227
G1 X153.624 Y106.172 E.03325
G1 X153.146 Y106.936 E.0305
G1 X152.51 Y107.575 E.03052
G1 X151.747 Y108.056 E.03053
G1 X150.896 Y108.354 E.03052
G1 X150 Y108.455 E.03052
G1 X149.104 Y108.354 E.03052
G1 X148.253 Y108.056 E.03052
G1 X147.49 Y107.575 E.03053
G1 X146.854 Y106.936 E.03052
G1 X146.376 Y106.171 E.03053
G1 X146.072 Y105.297 E.03132
M204 S1000
