; generated by PrusaSlicer 2.8.0+win64 on 2024-07-16 at 14:14:04 UTC


;
;

;
;
; 

; external perimeters extrusion width = 0.45mm
; perimeters extrusion width = 0.45mm
; infill extrusion width = 0.45mm
; solid infill extrusion width = 0.45mm
; top infill extrusion width = 0.40mm
; first layer extrusion width = 0.42mm

M73 P0 R21

; printing object Equerre3-Corps id:0 copy 0
; stop printing object Equerre3-Corps id:0 copy 0

;TYPE:Custom
M104 S215 ; set extruder temp
M140 S74 ; set bed temp
M190 S74 ; wait for bed temp
M109 S215 ; wait for extruder temp
G1 Z5 F15000 ; lift
G1 X299 Y160 F4500 ; move to prime
G1 Z0.29 F4500 ; get ready to prime
G92 E0 ; reset extrusion distance
G1 Y150 E9.0 F600 ; prime nozzle
G1 Y110 E12.5 F600 ; prime nozzle
G1 Y80 F5000 ; quick wipe
G21 ; set units to millimeters
G90 ; use absolute coordinates
M83 ; use relative distances for extrusion
M900 K0.05 ; Filament gcode LA 1.5
M900 K30 ; Filament gcode LA 1.0
M107
;LAYER_CHANGE
;Z:0.22
;HEIGHT:0.22
G1 E-.8 F2100
G1 Z.42 F10800
G1 X138.333 Y90.139
G1 Z.22
G1 E.8 F2100
M204 S1000
;TYPE:Skirt/Brim
;WIDTH:0.42
G1 F1200
G1 X139.389 Y89.194 E.04832
G1 X140.5 Y88.941 E.03885
G1 X159.5 Y88.941 E.64785
G1 X160.861 Y89.333 E.04829
M73 P1 R21
G1 X161.806 Y90.389 E.04832
G1 X162.059 Y91.5 E.03885
G1 X162.059 Y108.5 E.57965
G1 X161.667 Y109.861 E.04829
G1 X160.611 Y110.806 E.04832
G1 X159.5 Y111.059 E.03885
G1 X140.5 Y111.059 E.64785
G1 X139.139 Y110.667 E.04829
G1 X138.194 Y109.611 E.04832
G1 X137.941 Y108.5 E.03885
G1 X137.941 Y91.5 E.57965
G1 X138.316 Y90.196 E.04626
G1 X138.316 Y90.196 F10800
G1 X138.686 Y90.312
G1 F1200
G1 X138.704 Y90.252 E.00214
G1 X139.737 Y89.451 E.04457
G1 X140.5 Y89.314 E.02643
G1 X159.5 Y89.314 E.64785
G1 X160.748 Y89.704 E.04458
G1 X161.549 Y90.737 E.04457
G1 X161.686 Y91.5 E.02643
G1 X161.686 Y108.5 E.57965
G1 X161.296 Y109.748 E.04458
G1 X160.263 Y110.549 E.04457
G1 X159.5 Y110.686 E.02643
G1 X140.5 Y110.686 E.64785
G1 X139.252 Y110.296 E.04458
G1 X138.451 Y109.263 E.04457
G1 X138.314 Y108.5 E.02643
G1 X138.314 Y91.5 E.57965
G1 X138.668 Y90.369 E.04041
;WIPE_START
G1 F8640
G1 X138.686 Y90.312 E-.0138
G1 X138.704 Y90.252 E-.01446
G1 X139.737 Y89.451 E-.30183
G1 X140.5 Y89.314 E-.179
G1 X141.76 Y89.314 E-.29091
;WIPE_END
G1 Z.42 F10800
; printing object Equerre3-Corps id:0 copy 0
G1 X147.418 Y97.883
G1 Z.22
G1 E.8 F2100
;TYPE:Perimeter
G1 F1200
G1 X147.655 Y97.308 E.02121
G1 X147.98 Y96.838 E.01948
G1 X148.398 Y96.448 E.01949
G1 X148.89 Y96.156 E.01951
G1 X149.432 Y95.975 E.01948
G1 X149.921 Y95.922 E.01677
G1 X150 Y95.914 E.00271
G1 X150.568 Y95.975 E.01948
G1 X151.11 Y96.156 E.01948
G1 X151.602 Y96.448 E.01951
G1 X152.02 Y96.838 E.01949
G1 X152.345 Y97.308 E.01948
G1 X152.583 Y97.885 E.02128
G1 X152.583 Y105.115 E.24652
G1 X152.345 Y105.693 E.02131
G1 X152.02 Y106.162 E.01946
G1 X151.602 Y106.552 E.01949
G1 X151.11 Y106.844 E.01951
G1 X150.568 Y107.025 E.01948
G1 X150 Y107.086 E.01948
G1 X149.432 Y107.025 E.01948
G1 X148.89 Y106.844 E.01948
G1 X148.398 Y106.552 E.01951
G1 X147.98 Y106.162 E.01949
G1 X147.655 Y105.693 E.01946
G1 X147.417 Y105.115 E.02131
G1 X147.417 Y97.942 E.24458
G1 X147.417 Y97.942 F10800
G1 X147.79 Y97.958
;TYPE:External perimeter
G1 F1200
G1 X147.984 Y97.487 E.01737
G1 X148.264 Y97.083 E.01676
G1 X148.623 Y96.748 E.01674
G1 X149.046 Y96.497 E.01677
G1 X149.512 Y96.341 E.01676
G1 X149.961 Y96.293 E.0154
G1 X150 Y96.289 E.00134
G1 X150.488 Y96.341 E.01673
G1 X150.954 Y96.497 E.01676
G1 X151.377 Y96.748 E.01677
G1 X151.736 Y97.083 E.01674
G1 X152.016 Y97.487 E.01676
G1 X152.21 Y97.958 E.01737
G1 X152.21 Y105.042 E.24154
G1 X152.016 Y105.513 E.01737
G1 X151.736 Y105.917 E.01676
G1 X151.377 Y106.252 E.01674
G1 X150.954 Y106.503 E.01677
G1 X150.488 Y106.659 E.01676
G1 X150 Y106.711 E.01673
G1 X149.512 Y106.659 E.01673
G1 X149.046 Y106.503 E.01676
G1 X148.623 Y106.252 E.01677
G1 X148.264 Y105.917 E.01674
G1 X147.984 Y105.513 E.01676
G1 X147.79 Y105.042 E.01737
G1 X147.79 Y98.018 E.2395
;WIPE_START
G1 F8640
G1 X147.79 Y97.958 E-.01385
G1 X147.984 Y97.487 E-.11762
G1 X148.264 Y97.083 E-.1135
G1 X148.623 Y96.748 E-.11338
G1 X149.046 Y96.497 E-.11357
G1 X149.512 Y96.341 E-.11347
G1 X149.961 Y96.293 E-.10427
G1 X150 Y96.289 E-.00905
G1 X150.437 Y96.336 E-.10129
;WIPE_END
G1 Z.42 F10800
G1 X158.172 Y107.172
G1 Z.22
G1 E.8 F2100
;TYPE:Perimeter
G1 F1200
G1 X152.031 Y107.172 E.20939
G1 X152.587 Y106.653 E.02593
G1 X153.004 Y106.051 E.02497
G1 X153.328 Y105.263 E.02905
G1 X153.328 Y97.737 E.25662
G1 X153.004 Y96.949 E.02905
G1 X152.587 Y96.347 E.02497
G1 X152.052 Y95.848 E.02495
G1 X151.422 Y95.474 E.02498
G1 X150.728 Y95.242 E.02495
G1 X150 Y95.164 E.02496
G1 X149.272 Y95.242 E.02496
G1 X148.578 Y95.474 E.02495
G1 X147.948 Y95.848 E.02498
G1 X147.413 Y96.347 E.02495
G1 X146.996 Y96.949 E.02497
G1 X146.672 Y97.737 E.02905
M73 P1 R20
G1 X146.672 Y105.263 E.25662
G1 X146.996 Y106.051 E.02905
M73 P2 R20
G1 X147.413 Y106.653 E.02497
G1 X147.969 Y107.172 E.02593
G1 X141.828 Y107.172 E.20939
G1 X141.828 Y92.828 E.48909
G1 X158.172 Y92.828 E.55728
G1 X158.172 Y107.112 E.48704
G1 X158.172 Y107.112 F10800
G1 X158.544 Y107.544
G1 F1200
G1 X150.783 Y107.544 E.26463
G1 X150.752 Y107.357 E.00646
G1 X151.266 Y107.185 E.01848
G1 X151.827 Y106.852 E.02224
G1 X152.303 Y106.408 E.02219
G1 X152.674 Y105.872 E.02223
G1 X152.956 Y105.189 E.0252
G1 X152.956 Y97.811 E.25157
G1 X152.674 Y97.128 E.0252
G1 X152.303 Y96.592 E.02223
G1 X151.827 Y96.148 E.02219
G1 X151.266 Y95.815 E.02224
G1 X150.648 Y95.609 E.02221
G1 X150 Y95.539 E.02222
G1 X149.352 Y95.609 E.02222
G1 X148.734 Y95.815 E.02221
G1 X148.173 Y96.148 E.02224
G1 X147.697 Y96.592 E.02219
G1 X147.326 Y97.128 E.02223
G1 X147.044 Y97.811 E.0252
G1 X147.044 Y105.189 E.25157
G1 X147.326 Y105.872 E.0252
G1 X147.697 Y106.408 E.02223
G1 X148.173 Y106.852 E.02219
G1 X148.734 Y107.185 E.02224
G1 X149.248 Y107.357 E.01848
G1 X149.217 Y107.544 E.00646
G1 X141.456 Y107.544 E.26463
G1 X141.456 Y92.456 E.51446
G1 X158.544 Y92.456 E.58265
G1 X158.544 Y107.484 E.51241
G1 X158.544 Y107.484 F10800
G1 X158.917 Y107.917
G1 F1200
G1 X141.083 Y107.917 E.60809
G1 X141.083 Y92.083 E.53989
G1 X158.917 Y92.083 E.60809
G1 X158.917 Y107.857 E.53785
G1 X158.917 Y107.857 F10800
G1 X159.29 Y108.29
;TYPE:External perimeter
G1 F1200
G1 X140.71 Y108.29 E.63353
G1 X140.71 Y91.71 E.56533
G1 X159.29 Y91.71 E.63353
M73 P3 R20
G1 X159.29 Y108.23 E.56328
;WIPE_START
G1 F8640
G1 X159.29 Y108.29 E-.01385
G1 X155.885 Y108.29 E-.78615
;WIPE_END
G1 Z.42 F10800
G1 X151.771 Y107.128
G1 Z.22
G1 E.8 F2100
;TYPE:Gap fill
;WIDTH:0.126255
G1 F1200
G1 X151.465 Y107.358 E.00277
G1 X151.465 Y107.358 F10800
G1 X150.582 Y107.472
;WIDTH:0.539052
G1 F1200
G1 X150.025 Y107.502 E.02509
G1 X149.975 Y107.502 E.00225
G1 X149.418 Y107.472 E.02509
G1 X149.418 Y107.472 F10800
G1 X148.535 Y107.358
;WIDTH:0.154895
G1 F1200
G1 X148.229 Y107.128 E.00377
;WIPE_START
G1 F8640
G1 X148.535 Y107.358 E-.08839
;WIPE_END
G1 E-.71161 F2100
G1 Z.42 F10800
G1 X158.06 Y93.701
G1 Z.22
G1 E.8 F2100
;TYPE:Solid infill
;WIDTH:0.423265
G1 F1200
G1 X157.467 Y93.108 E.02885
G1 X156.935 Y93.108 E.0183
G1 X157.892 Y94.065 E.04655
G1 X157.892 Y94.597 E.0183
G1 X156.403 Y93.108 E.07243
G1 X155.872 Y93.108 E.01826
G1 X157.892 Y95.128 E.09826
G1 X157.892 Y95.66 E.0183
G1 X155.34 Y93.108 E.12414
G1 X154.808 Y93.108 E.0183
G1 X157.892 Y96.192 E.15002
G1 X157.892 Y96.724 E.0183
G1 X154.276 Y93.108 E.17589
G1 X153.744 Y93.108 E.0183
G1 X157.892 Y97.256 E.20177
G1 X157.892 Y97.788 E.0183
G1 X153.212 Y93.108 E.22765
G1 X152.681 Y93.108 E.01826
G1 X157.892 Y98.319 E.25348
G1 X157.892 Y98.851 E.0183
G1 X152.149 Y93.108 E.27936
G1 X151.617 Y93.108 E.0183
G1 X157.892 Y99.383 E.30524
G1 X157.892 Y99.915 E.0183
G1 X151.085 Y93.108 E.33111
G1 X150.553 Y93.108 E.0183
G1 X157.892 Y100.447 E.35699
G1 X157.892 Y100.978 E.01826
G1 X150.022 Y93.108 E.38282
G1 X149.49 Y93.108 E.0183
G1 X151.689 Y95.307 E.10697
G1 X152.22 Y95.623 E.02125
G1 X152.8 Y96.163 E.02726
G1 X153.251 Y96.815 E.02727
G1 X153.289 Y96.907 E.00342
G1 X157.892 Y101.51 E.2239
G1 X157.892 Y102.042 E.0183
G1 X153.608 Y97.758 E.20839
G1 X153.608 Y98.29 E.0183
G1 X157.892 Y102.574 E.20839
G1 X157.892 Y103.106 E.0183
G1 X153.608 Y98.822 E.20839
G1 X153.608 Y99.353 E.01826
G1 X157.892 Y103.638 E.20841
G1 X157.892 Y104.169 E.01826
G1 X153.608 Y99.885 E.20839
G1 X153.608 Y100.417 E.0183
G1 X157.892 Y104.701 E.20839
G1 X157.892 Y105.233 E.0183
G1 X153.608 Y100.949 E.20839
G1 X153.608 Y101.481 E.0183
G1 X157.892 Y105.765 E.20839
G1 X157.892 Y106.297 E.0183
G1 X153.608 Y102.013 E.20839
G1 X153.608 Y102.544 E.01826
G1 X157.892 Y106.828 E.20839
G1 X157.892 Y106.892 E.0022
G1 X157.424 Y106.892 E.0161
G1 X153.608 Y103.076 E.18562
G1 X153.608 Y103.608 E.0183
G1 X156.892 Y106.892 E.15974
G1 X156.36 Y106.892 E.0183
G1 X153.608 Y104.14 E.13387
G1 X153.608 Y104.672 E.0183
G1 X155.828 Y106.892 E.10799
G1 X155.297 Y106.892 E.01826
G1 X153.608 Y105.203 E.08216
G1 X153.608 Y105.318 E.00396
G1 X153.486 Y105.614 E.01101
G1 X154.765 Y106.892 E.06219
M73 P4 R20
G1 X154.233 Y106.892 E.0183
G1 X153.331 Y105.99 E.04388
G1 X153.251 Y106.185 E.00725
G1 X153.146 Y106.337 E.00635
G1 X153.701 Y106.892 E.027
G1 X153.169 Y106.892 E.0183
G1 X152.808 Y106.53 E.01758
;WIPE_START
G1 F8640
G1 X153.169 Y106.892 E-.11805
G1 X153.701 Y106.892 E-.12284
G1 X153.146 Y106.337 E-.18123
G1 X153.251 Y106.185 E-.04266
G1 X153.331 Y105.99 E-.04867
G1 X154.208 Y106.868 E-.28655
;WIPE_END
G1 Z.42 F10800
G1 X151.098 Y95.248
G1 Z.22
G1 E.8 F2100
G1 F1200
G1 X148.958 Y93.108 E.1041
G1 X148.426 Y93.108 E.0183
G1 X150.225 Y94.907 E.08751
G1 X150 Y94.883 E.00778
G1 X149.701 Y94.915 E.01034
G1 X147.894 Y93.108 E.0879
G1 X147.362 Y93.108 E.0183
G1 X149.221 Y94.967 E.09043
G1 X149.212 Y94.968 E.00031
G1 X148.821 Y95.098 E.01417
G1 X146.831 Y93.108 E.0968
G1 X146.299 Y93.108 E.0183
G1 X148.428 Y95.237 E.10356
G1 X148.095 Y95.436 E.01334
G1 X145.767 Y93.108 E.11324
G1 X145.235 Y93.108 E.0183
G1 X147.764 Y95.637 E.12302
G1 X147.489 Y95.894 E.01295
G1 X144.703 Y93.108 E.13552
G1 X144.172 Y93.108 E.01826
G1 X147.214 Y96.151 E.148
G1 X147.2 Y96.163 E.00063
G1 X146.994 Y96.462 E.01249
G1 X143.64 Y93.108 E.16315
G1 X143.108 Y93.108 E.0183
G1 X146.776 Y96.776 E.17842
G1 X146.749 Y96.815 E.00163
G1 X146.613 Y97.145 E.01228
G1 X142.576 Y93.108 E.19637
G1 X142.108 Y93.108 E.0161
G1 X142.108 Y93.172 E.0022
G1 X146.458 Y97.522 E.2116
G1 X146.392 Y97.682 E.00595
G1 X146.392 Y97.988 E.01053
G1 X142.108 Y93.703 E.20841
G1 X142.108 Y94.235 E.0183
G1 X146.392 Y98.519 E.20839
G1 X146.392 Y99.051 E.0183
G1 X142.108 Y94.767 E.20839
G1 X142.108 Y95.299 E.0183
G1 X146.392 Y99.583 E.20839
G1 X146.392 Y100.115 E.0183
G1 X142.108 Y95.831 E.20839
G1 X142.108 Y96.363 E.0183
G1 X146.392 Y100.647 E.20839
G1 X146.392 Y101.178 E.01826
G1 X142.108 Y96.894 E.20839
G1 X142.108 Y97.426 E.0183
G1 X146.392 Y101.71 E.20839
G1 X146.392 Y102.242 E.0183
G1 X142.108 Y97.958 E.20839
G1 X142.108 Y98.49 E.0183
G1 X146.392 Y102.774 E.20839
G1 X146.392 Y103.306 E.0183
G1 X142.108 Y99.022 E.20839
G1 X142.108 Y99.553 E.01826
G1 X146.392 Y103.838 E.20841
G1 X146.392 Y104.369 E.01826
G1 X142.108 Y100.085 E.20839
G1 X142.108 Y100.617 E.0183
G1 X146.392 Y104.901 E.20839
G1 X146.392 Y105.318 E.01434
G1 X146.472 Y105.513 E.00725
G1 X142.108 Y101.149 E.21228
G1 X142.108 Y101.681 E.0183
G1 X147.057 Y106.63 E.24073
G1 X147.2 Y106.837 E.00865
G1 X147.26 Y106.892 E.0028
G1 X146.787 Y106.892 E.01627
G1 X142.108 Y102.213 E.2276
G1 X142.108 Y102.744 E.01826
G1 X146.256 Y106.892 E.20177
G1 X145.724 Y106.892 E.0183
G1 X142.108 Y103.276 E.17589
G1 X142.108 Y103.808 E.0183
G1 X145.192 Y106.892 E.15002
G1 X144.66 Y106.892 E.0183
G1 X142.108 Y104.34 E.12414
G1 X142.108 Y104.872 E.0183
G1 X144.128 Y106.892 E.09826
G1 X143.597 Y106.892 E.01826
G1 X142.108 Y105.403 E.07243
G1 X142.108 Y105.935 E.0183
G1 X143.065 Y106.892 E.04655
G1 X142.533 Y106.892 E.0183
G1 X141.94 Y106.299 E.02885
M106 S84.15
;LAYER_CHANGE
;Z:0.42
;HEIGHT:0.2
;BEFORE_LAYER_CHANGE
G92 E0.0
;0.42
;WIPE_START
G1 F8640
G1 X142.533 Y106.892 E-.19364
G1 X143.065 Y106.892 E-.12284
G1 X142.108 Y105.935 E-.3125
G1 X142.108 Y105.403 E-.12284
G1 X142.255 Y105.551 E-.04818
;WIPE_END
G1 Z.42 F10800
;AFTER_LAYER_CHANGE
;0.42
M104 S210 ; set temperature
M140 S68 ; set bed temperature
; stop printing object Equerre3-Corps id:0 copy 0
G1 Z.62
G1 X137.941 Y105.551
G1 Z.42
G1 E.8 F2100
;TYPE:Skirt/Brim
;WIDTH:0.42
G1 F3000
G1 X137.941 Y91.5 E.44056
G1 X138.333 Y90.139 E.04441
G1 X139.389 Y89.194 E.04443
G1 X140.5 Y88.941 E.03573
G1 X159.5 Y88.941 E.59573
G1 X160.861 Y89.333 E.04441
G1 X161.806 Y90.389 E.04443
G1 X162.059 Y91.5 E.03573
G1 X162.059 Y108.5 E.53302
G1 X161.667 Y109.861 E.04441
M73 P5 R20
G1 X160.611 Y110.806 E.04443
G1 X159.5 Y111.059 E.03573
G1 X140.5 Y111.059 E.59573
G1 X139.139 Y110.667 E.04441
G1 X138.194 Y109.611 E.04443
G1 X137.941 Y108.5 E.03573
G1 X137.941 Y105.611 E.09058
G1 X137.941 Y105.611 F10800
G1 X138.314 Y105.611
G1 F3000
G1 X138.314 Y91.5 E.44244
G1 X138.704 Y90.252 E.041
G1 X139.737 Y89.451 E.04099
G1 X140.5 Y89.314 E.02431
G1 X159.5 Y89.314 E.59573
G1 X160.748 Y89.704 E.041
G1 X161.549 Y90.737 E.04099
G1 X161.686 Y91.5 E.02431
G1 X161.686 Y108.5 E.53302
G1 X161.296 Y109.748 E.041
G1 X160.263 Y110.549 E.04099
G1 X159.5 Y110.686 E.02431
G1 X140.5 Y110.686 E.59573
G1 X139.252 Y110.296 E.041
G1 X138.451 Y109.263 E.04099
G1 X138.314 Y108.5 E.02431
G1 X138.314 Y105.671 E.0887
;WIPE_START
G1 F8640
G1 X138.314 Y105.611 E-.01385
G1 X138.314 Y102.206 E-.78615
;WIPE_END
G1 Z.62 F10800
; printing object Equerre3-Corps id:0 copy 0
G1 X147.368 Y97.877
G1 Z.42
G1 E.8 F2100
M204 S800
;TYPE:Perimeter
;WIDTH:0.45
G1 F1500
G1 X147.368 Y97.875 E.00007
G1 X147.612 Y97.284 E.02164
G1 X147.943 Y96.805 E.01971
G1 X148.369 Y96.408 E.01971
G1 X148.869 Y96.111 E.01969
G1 X149.421 Y95.927 E.0197
G1 X149.885 Y95.877 E.0158
G1 X150 Y95.864 E.00392
G1 X150.579 Y95.927 E.01971
G1 X151.131 Y96.111 E.0197
G1 X151.631 Y96.408 E.01969
G1 X152.057 Y96.805 E.01971
G1 X152.388 Y97.284 E.01971
G1 X152.632 Y97.875 E.02164
G1 X152.632 Y105.125 E.2454
G1 X152.388 Y105.716 E.02164
G1 X152.057 Y106.195 E.01971
G1 X151.631 Y106.592 E.01971
G1 X151.131 Y106.889 E.01969
G1 X150.579 Y107.073 E.0197
G1 X150 Y107.136 E.01971
G1 X149.421 Y107.073 E.01971
G1 X148.869 Y106.889 E.0197
G1 X148.369 Y106.592 E.01969
G1 X147.943 Y106.195 E.01971
G1 X147.612 Y105.716 E.01971
G1 X147.368 Y105.125 E.02164
G1 X147.368 Y97.937 E.24331
M204 S1000
G1 X147.368 Y97.937 F10800
G1 X147.775 Y97.955
M204 S800
;TYPE:External perimeter
G1 F1500
G1 X147.971 Y97.479 E.01742
G1 X148.253 Y97.073 E.01673
G1 X148.614 Y96.736 E.01672
G1 X149.039 Y96.483 E.01674
G1 X149.508 Y96.327 E.01673
G1 X149.929 Y96.281 E.01434
G1 X150 Y96.274 E.00241
G1 X150.492 Y96.327 E.01675
G1 X150.961 Y96.483 E.01673
G1 X151.386 Y96.736 E.01674
G1 X151.747 Y97.073 E.01672
G1 X152.029 Y97.479 E.01673
G1 X152.225 Y97.955 E.01742
G1 X152.225 Y105.045 E.23999
G1 X152.029 Y105.521 E.01742
G1 X151.747 Y105.927 E.01673
G1 X151.386 Y106.264 E.01672
G1 X150.961 Y106.517 E.01674
G1 X150.492 Y106.673 E.01673
G1 X150 Y106.726 E.01675
G1 X149.508 Y106.673 E.01675
G1 X149.039 Y106.517 E.01673
G1 X148.614 Y106.264 E.01674
G1 X148.253 Y105.927 E.01672
G1 X147.971 Y105.521 E.01673
G1 X147.775 Y105.045 E.01742
G1 X147.775 Y98.015 E.23796
M204 S1000
;WIPE_START
G1 F8640
G1 X147.775 Y97.955 E-.01385
G1 X147.971 Y97.479 E-.11886
G1 X148.253 Y97.073 E-.11414
G1 X148.614 Y96.736 E-.11403
G1 X149.039 Y96.483 E-.11421
G1 X149.508 Y96.327 E-.11413
G1 X149.929 Y96.281 E-.09779
G1 X150 Y96.274 E-.01647
G1 X150.415 Y96.318 E-.09652
;WIPE_END
G1 Z.62 F10800
G1 X158.054 Y107.054
G1 Z.42
G1 E.8 F2100
M204 S800
;TYPE:Perimeter
G1 F3600
G1 X152.33 Y107.054 E.19375
G1 X152.677 Y106.73 E.01607
G1 X153.108 Y106.108 E.02561
G1 X153.446 Y105.286 E.03008
G1 X153.446 Y97.714 E.2563
G1 X153.108 Y96.892 E.03008
G1 X152.677 Y96.27 E.02561
G1 X152.123 Y95.753 E.02565
G1 X151.472 Y95.366 E.02564
G1 X150.753 Y95.126 E.02566
G1 X150 Y95.045 E.02564
G1 X149.247 Y95.126 E.02564
G1 X148.528 Y95.366 E.02566
