; generated by PrusaSlicer 2.8.0+win64 on 2024-06-28 at 13:58:23 UTC


;
;

;
;
; 

; external perimeters extrusion width = 0.45mm
; perimeters extrusion width = 0.45mm
; infill extrusion width = 0.45mm
; solid infill extrusion width = 0.45mm
; top infill extrusion width = 0.40mm
; first layer extrusion width = 0.42mm

M73 P0 R18

; printing object Motor-Corps id:0 copy 0
; stop printing object Motor-Corps id:0 copy 0

;TYPE:Custom
M104 S215 ; set extruder temp
M140 S74 ; set bed temp
M190 S74 ; wait for bed temp
M109 S215 ; wait for extruder temp
G1 Z5 F15000 ; lift
G1 X299 Y160 F4500 ; move to prime
G1 Z0.29 F4500 ; get ready to prime
G92 E0 ; reset extrusion distance
G1 Y150 E9.0 F600 ; prime nozzle
G1 Y110 E12.5 F600 ; prime nozzle
G1 Y80 F5000 ; quick wipe
G21 ; set units to millimeters
G90 ; use absolute coordinates
M83 ; use relative distances for extrusion
M900 K0.05 ; Filament gcode LA 1.5
M900 K30 ; Filament gcode LA 1.0
M107
;LAYER_CHANGE
;Z:0.22
;HEIGHT:0.22
G1 E-.8 F2100
G1 Z.42 F10800
G1 X128.204 Y86.252
G1 Z.22
M73 P1 R18
G1 E.8 F2100
M204 S1000
;TYPE:Skirt/Brim
;WIDTH:0.42
G1 F1200
G1 X129.237 Y85.451 E.04457
G1 X130 Y85.314 E.02643
G1 X170 Y85.314 E1.36389
G1 X171.248 Y85.704 E.04458
G1 X172.049 Y86.737 E.04457
G1 X172.186 Y87.5 E.02643
G1 X172.186 Y112.5 E.85243
G1 X171.796 Y113.748 E.04458
G1 X170.763 Y114.549 E.04457
G1 X170 Y114.686 E.02643
G1 X130 Y114.686 E1.36389
G1 X128.752 Y114.296 E.04458
G1 X127.951 Y113.263 E.04457
G1 X127.814 Y112.5 E.02643
G1 X127.814 Y87.5 E.85243
G1 X128.187 Y86.31 E.04252
;WIPE_START
G1 F8640
G1 X128.204 Y86.252 E-.01396
G1 X129.237 Y85.451 E-.30183
G1 X130 Y85.314 E-.179
G1 X131.322 Y85.314 E-.30521
;WIPE_END
G1 Z.42 F10800
; printing object Motor-Corps id:0 copy 0
G1 X168.798 Y98.673
G1 Z.22
G1 E.8 F2100
;TYPE:External perimeter
G1 F1200
G1 X169.032 Y99.318 E.0234
G1 X169.111 Y100 E.02341
G1 X169.032 Y100.682 E.02341
G1 X168.798 Y101.327 E.0234
G1 X168.422 Y101.901 E.0234
G1 X167.924 Y102.373 E.0234
G1 X167.331 Y102.718 E.02339
G1 X166.674 Y102.918 E.02342
G1 X166.011 Y102.96 E.02265
G1 X150 Y103.71 E.54653
G1 X133.989 Y102.96 E.54653
G1 X133.326 Y102.918 E.02265
G1 X132.669 Y102.718 E.02342
G1 X132.076 Y102.373 E.02339
G1 X131.578 Y101.901 E.0234
G1 X131.225 Y101.362 E.02197
G1 X131.202 Y101.327 E.00143
G1 X130.968 Y100.682 E.0234
G1 X130.889 Y100 E.02341
G1 X130.968 Y99.318 E.02341
G1 X131.202 Y98.673 E.0234
G1 X131.578 Y98.099 E.0234
G1 X132.076 Y97.627 E.0234
G1 X132.669 Y97.282 E.02339
G1 X133.326 Y97.082 E.02342
G1 X133.989 Y97.04 E.02265
G1 X134.43 Y97.02 E.01505
G1 X150 Y96.29 E.53148
G1 X166.011 Y97.04 E.54653
M73 P2 R18
G1 X166.674 Y97.082 E.02265
G1 X167.331 Y97.282 E.02342
G1 X167.924 Y97.627 E.02339
G1 X168.422 Y98.099 E.0234
G1 X168.765 Y98.623 E.02135
;WIPE_START
G1 F8640
G1 X168.798 Y98.673 E-.01383
G1 X169.032 Y99.318 E-.15843
G1 X169.111 Y100 E-.15853
G1 X169.032 Y100.682 E-.15853
G1 X168.798 Y101.327 E-.15843
G1 X168.437 Y101.879 E-.15225
;WIPE_END
G1 Z.42 F10800
G1 X162.926 Y95.443
G1 Z.22
G1 E.8 F2100
;TYPE:Perimeter
G1 F1200
G1 X162.315 Y95.594 E.02146
G1 X161.685 Y95.594 E.02148
G1 X161.074 Y95.443 E.02146
G1 X160.516 Y95.15 E.02149
G1 X160.045 Y94.732 E.02147
G1 X159.759 Y94.319 E.01713
G1 X159.687 Y94.214 E.00434
G1 X159.463 Y93.625 E.02149
G1 X159.387 Y93 E.02147
G1 X159.463 Y92.375 E.02147
G1 X159.687 Y91.786 E.02149
G1 X160.045 Y91.268 E.02147
G1 X160.516 Y90.85 E.02147
G1 X161.074 Y90.557 E.02149
G1 X161.685 Y90.406 E.02146
G1 X162.315 Y90.406 E.02148
G1 X162.803 Y90.527 E.01714
G1 X162.926 Y90.557 E.00432
G1 X163.484 Y90.85 E.02149
G1 X163.955 Y91.268 E.02147
G1 X164.313 Y91.786 E.02147
G1 X164.537 Y92.375 E.02149
G1 X164.613 Y93 E.02147
G1 X164.537 Y93.625 E.02147
G1 X164.313 Y94.214 E.02149
G1 X163.955 Y94.732 E.02147
G1 X163.484 Y95.15 E.02147
G1 X162.98 Y95.415 E.01942
G1 X162.98 Y95.415 F10800
G1 X162.793 Y95.092
G1 F1200
G1 X162.27 Y95.221 E.01837
G1 X161.73 Y95.221 E.01841
G1 X161.207 Y95.092 E.01837
G1 X160.729 Y94.841 E.01841
G1 X160.326 Y94.483 E.01838
G1 X160.066 Y94.107 E.01559
G1 X160.019 Y94.04 E.00279
G1 X159.828 Y93.535 E.01841
G1 X159.763 Y93 E.01838
G1 X159.828 Y92.465 E.01838
G1 X160.019 Y91.96 E.01841
G1 X160.326 Y91.517 E.01838
G1 X160.729 Y91.159 E.01838
G1 X161.207 Y90.908 E.01841
G1 X161.73 Y90.779 E.01837
G1 X162.27 Y90.779 E.01841
G1 X162.714 Y90.889 E.0156
G1 X162.793 Y90.908 E.00277
G1 X163.271 Y91.159 E.01841
G1 X163.674 Y91.517 E.01838
G1 X163.981 Y91.96 E.01838
G1 X164.172 Y92.465 E.01841
G1 X164.237 Y93 E.01838
G1 X164.172 Y93.535 E.01838
G1 X163.981 Y94.04 E.01841
G1 X163.674 Y94.483 E.01838
G1 X163.271 Y94.841 E.01838
G1 X162.846 Y95.064 E.01636
G1 X162.846 Y95.064 F10800
G1 X162.66 Y94.741
;TYPE:External perimeter
G1 F1200
G1 X162.224 Y94.848 E.01531
G1 X161.776 Y94.848 E.01528
G1 X161.34 Y94.741 E.01531
G1 X160.943 Y94.532 E.0153
G1 X160.607 Y94.234 E.01531
G1 X160.372 Y93.895 E.01406
G1 X160.352 Y93.865 E.00123
G1 X160.193 Y93.445 E.01531
G1 X160.138 Y93 E.01529
G1 X160.193 Y92.555 E.01529
G1 X160.352 Y92.135 E.01531
G1 X160.607 Y91.766 E.01529
G1 X160.943 Y91.468 E.01531
G1 X161.34 Y91.259 E.0153
G1 X161.776 Y91.152 E.01531
G1 X162.224 Y91.152 E.01528
G1 X162.625 Y91.251 E.01408
G1 X162.66 Y91.259 E.00122
G1 X163.057 Y91.468 E.0153
G1 X163.393 Y91.766 E.01531
G1 X163.648 Y92.135 E.01529
G1 X163.807 Y92.555 E.01531
G1 X163.862 Y93 E.01529
G1 X163.807 Y93.445 E.01529
G1 X163.648 Y93.865 E.01531
G1 X163.393 Y94.234 E.01529
G1 X163.057 Y94.532 E.01531
G1 X162.713 Y94.713 E.01325
;WIPE_START
G1 F8640
G1 X162.66 Y94.741 E-.01384
G1 X162.224 Y94.848 E-.10366
G1 X161.776 Y94.848 E-.10344
G1 X161.34 Y94.741 E-.10366
G1 X160.943 Y94.532 E-.1036
G1 X160.607 Y94.234 E-.1037
G1 X160.372 Y93.895 E-.09524
G1 X160.352 Y93.865 E-.00833
G1 X160.193 Y93.445 E-.1037
G1 X160.161 Y93.184 E-.06083
;WIPE_END
G1 Z.42 F10800
G1 X168.672 Y96.768
G1 Z.22
G1 E.8 F2100
;TYPE:Perimeter
G1 F1200
G1 X167.78 Y96.249 E.03519
G1 X166.874 Y95.974 E.03228
G1 X166.073 Y95.924 E.02736
G1 X163.406 Y95.799 E.09104
G1 X163.369 Y95.632 E.00583
G1 X163.697 Y95.459 E.01264
G1 X164.237 Y94.981 E.02459
G1 X164.646 Y94.389 E.02453
G1 X164.901 Y93.715 E.02457
G1 X164.988 Y93 E.02456
G1 X164.901 Y92.285 E.02456
G1 X164.646 Y91.611 E.02457
G1 X164.237 Y91.019 E.02453
G1 X163.697 Y90.541 E.02459
G1 X163.06 Y90.206 E.02454
G1 X162.36 Y90.034 E.02458
G1 X161.64 Y90.034 E.02455
G1 X160.94 Y90.206 E.02458
G1 X160.303 Y90.541 E.02454
G1 X159.763 Y91.019 E.02459
G1 X159.354 Y91.611 E.02453
G1 X159.099 Y92.285 E.02457
G1 X159.012 Y93 E.02456
G1 X159.099 Y93.715 E.02456
G1 X159.354 Y94.389 E.02457
G1 X159.763 Y94.981 E.02453
G1 X160.356 Y95.506 E.02701
G1 X160.296 Y95.653 E.00541
G1 X150 Y95.17 E.35145
G1 X139.704 Y95.653 E.35145
G1 X139.644 Y95.506 E.00541
G1 X140.237 Y94.981 E.02701
G1 X140.646 Y94.389 E.02453
G1 X140.901 Y93.715 E.02457
G1 X140.988 Y93 E.02456
G1 X140.901 Y92.285 E.02456
G1 X140.646 Y91.611 E.02457
G1 X140.237 Y91.019 E.02453
G1 X139.697 Y90.541 E.02459
G1 X139.06 Y90.206 E.02454
G1 X138.892 Y90.165 E.0059
G1 X138.36 Y90.034 E.01868
G1 X137.64 Y90.034 E.02455
G1 X136.94 Y90.206 E.02458
G1 X136.303 Y90.541 E.02454
G1 X135.763 Y91.019 E.02459
G1 X135.354 Y91.611 E.02453
G1 X135.099 Y92.285 E.02457
G1 X135.012 Y93 E.02456
G1 X135.099 Y93.715 E.02456
G1 X135.354 Y94.389 E.02457
G1 X135.763 Y94.981 E.02453
G1 X136.303 Y95.459 E.02459
G1 X136.631 Y95.632 E.01264
G1 X136.594 Y95.799 E.00583
G1 X133.927 Y95.924 E.09104
G1 X133.126 Y95.974 E.02736
G1 X132.22 Y96.249 E.03228
G1 X131.328 Y96.768 E.03519
G1 X131.328 Y88.828 E.27073
G1 X168.672 Y88.828 E1.27332
G1 X168.672 Y96.708 E.26869
;WIPE_START
G1 F8640
G1 X168.672 Y96.768 E-.01385
G1 X167.78 Y96.249 E-.23829
G1 X166.874 Y95.974 E-.21862
G1 X166.073 Y95.924 E-.18531
G1 X165.45 Y95.895 E-.14393
;WIPE_END
G1 Z.42 F10800
G1 X139.955 Y91.268
G1 Z.22
G1 E.8 F2100
G1 F1200
G1 X140.313 Y91.786 E.02147
G1 X140.537 Y92.375 E.02149
G1 X140.613 Y93 E.02147
G1 X140.537 Y93.625 E.02147
M73 P3 R18
G1 X140.313 Y94.214 E.02149
G1 X139.955 Y94.732 E.02147
G1 X139.484 Y95.15 E.02147
G1 X138.926 Y95.443 E.02149
G1 X138.315 Y95.594 E.02146
G1 X137.685 Y95.594 E.02148
G1 X137.074 Y95.443 E.02146
G1 X136.516 Y95.15 E.02149
G1 X136.045 Y94.732 E.02147
G1 X135.759 Y94.319 E.01713
G1 X135.687 Y94.214 E.00434
G1 X135.463 Y93.625 E.02149
G1 X135.387 Y93 E.02147
G1 X135.463 Y92.375 E.02147
G1 X135.687 Y91.786 E.02149
G1 X136.045 Y91.268 E.02147
G1 X136.516 Y90.85 E.02147
G1 X137.074 Y90.557 E.02149
G1 X137.685 Y90.406 E.02146
G1 X138.315 Y90.406 E.02148
G1 X138.803 Y90.527 E.01714
G1 X138.926 Y90.557 E.00432
G1 X139.484 Y90.85 E.02149
G1 X139.911 Y91.228 E.01944
G1 X139.911 Y91.228 F10800
G1 X139.674 Y91.517
G1 F1200
G1 X139.981 Y91.96 E.01838
G1 X140.172 Y92.465 E.01841
G1 X140.237 Y93 E.01838
G1 X140.172 Y93.535 E.01838
G1 X139.981 Y94.04 E.01841
G1 X139.674 Y94.483 E.01838
G1 X139.271 Y94.841 E.01838
G1 X138.793 Y95.092 E.01841
G1 X138.27 Y95.221 E.01837
G1 X137.73 Y95.221 E.01841
G1 X137.207 Y95.092 E.01837
G1 X136.729 Y94.841 E.01841
G1 X136.326 Y94.483 E.01838
G1 X136.066 Y94.107 E.01559
G1 X136.019 Y94.04 E.00279
G1 X135.828 Y93.535 E.01841
G1 X135.763 Y93 E.01838
G1 X135.828 Y92.465 E.01838
G1 X136.019 Y91.96 E.01841
G1 X136.326 Y91.517 E.01838
G1 X136.729 Y91.159 E.01838
G1 X137.207 Y90.908 E.01841
G1 X137.73 Y90.779 E.01837
G1 X138.27 Y90.779 E.01841
G1 X138.714 Y90.889 E.0156
G1 X138.793 Y90.908 E.00277
G1 X139.271 Y91.159 E.01841
G1 X139.63 Y91.477 E.01635
G1 X139.63 Y91.477 F10800
G1 X139.393 Y91.766
;TYPE:External perimeter
G1 F1200
G1 X139.648 Y92.135 E.01529
G1 X139.807 Y92.555 E.01531
G1 X139.862 Y93 E.01529
G1 X139.807 Y93.445 E.01529
G1 X139.648 Y93.865 E.01531
G1 X139.393 Y94.234 E.01529
G1 X139.057 Y94.532 E.01531
G1 X138.66 Y94.741 E.0153
G1 X138.224 Y94.848 E.01531
G1 X137.776 Y94.848 E.01528
G1 X137.34 Y94.741 E.01531
G1 X136.943 Y94.532 E.0153
G1 X136.607 Y94.234 E.01531
G1 X136.372 Y93.895 E.01406
G1 X136.352 Y93.865 E.00123
G1 X136.193 Y93.445 E.01531
G1 X136.138 Y93 E.01529
G1 X136.193 Y92.555 E.01529
G1 X136.352 Y92.135 E.01531
G1 X136.607 Y91.766 E.01529
G1 X136.943 Y91.468 E.01531
G1 X137.34 Y91.259 E.0153
G1 X137.776 Y91.152 E.01531
G1 X138.224 Y91.152 E.01528
G1 X138.625 Y91.251 E.01408
G1 X138.66 Y91.259 E.00122
G1 X139.057 Y91.468 E.0153
G1 X139.348 Y91.726 E.01326
;WIPE_START
G1 F8640
G1 X139.393 Y91.766 E-.0139
G1 X139.648 Y92.135 E-.10357
G1 X139.807 Y92.555 E-.1037
G1 X139.862 Y93 E-.10353
G1 X139.807 Y93.445 E-.10353
G1 X139.648 Y93.865 E-.1037
G1 X139.393 Y94.234 E-.10357
G1 X139.057 Y94.532 E-.1037
G1 X138.824 Y94.654 E-.0608
;WIPE_END
G1 Z.42 F10800
G1 X169.044 Y97.662
G1 Z.22
G1 E.8 F2100
;TYPE:Perimeter
G1 F1200
G1 X168.374 Y97.026 E.0315
G1 X167.63 Y96.593 E.02935
G1 X166.807 Y96.343 E.02933
G1 X166.052 Y96.296 E.02579
G1 X150 Y95.543 E.54793
G1 X133.948 Y96.296 E.54793
G1 X133.193 Y96.343 E.02579
G1 X132.37 Y96.593 E.02933
G1 X131.626 Y97.026 E.02935
G1 X130.956 Y97.662 E.0315
G1 X130.956 Y88.456 E.3139
G1 X169.044 Y88.456 E1.29869
G1 X169.044 Y97.602 E.31185
M73 P3 R17
G1 X169.044 Y97.602 F10800
G1 X169.134 Y98.505
G1 F1200
G1 X168.71 Y97.858 E.02638
G1 X168.149 Y97.326 E.02636
G1 X167.48 Y96.937 E.02639
G1 X166.741 Y96.713 E.02633
G1 X166.032 Y96.668 E.02422
G1 X150 Y95.917 E.54724
G1 X133.968 Y96.668 E.54724
G1 X133.259 Y96.713 E.02422
G1 X132.52 Y96.937 E.02633
G1 X131.851 Y97.326 E.02639
G1 X131.29 Y97.858 E.02636
G1 X130.866 Y98.505 E.02638
G1 X130.768 Y98.777 E.00986
G1 X130.583 Y98.745 E.0064
G1 X130.583 Y88.083 E.36354
G1 X169.417 Y88.083 E1.32413
G1 X169.417 Y98.745 E.36354
M73 P4 R17
G1 X169.232 Y98.777 E.0064
G1 X169.154 Y98.562 E.0078
;WIPE_START
G1 F8640
G1 X169.134 Y98.505 E-.01395
G1 X168.71 Y97.858 E-.17862
G1 X168.149 Y97.326 E-.17852
G1 X167.48 Y96.937 E-.17869
G1 X166.741 Y96.713 E-.1783
G1 X166.43 Y96.693 E-.07192
;WIPE_END
G1 Z.42 F10800
G1 X161.074 Y104.557
G1 Z.22
G1 E.8 F2100
G1 F1200
G1 X161.685 Y104.406 E.02146
G1 X162.315 Y104.406 E.02148
G1 X162.803 Y104.527 E.01714
G1 X162.926 Y104.557 E.00432
G1 X163.484 Y104.85 E.02149
G1 X163.955 Y105.268 E.02147
G1 X164.313 Y105.786 E.02147
G1 X164.537 Y106.375 E.02149
G1 X164.613 Y107 E.02147
G1 X164.537 Y107.625 E.02147
G1 X164.313 Y108.214 E.02149
G1 X163.956 Y108.732 E.02145
G1 X163.484 Y109.15 E.0215
G1 X162.926 Y109.443 E.02149
G1 X162.315 Y109.594 E.02146
G1 X161.685 Y109.594 E.02148
G1 X161.074 Y109.443 E.02146
G1 X160.516 Y109.15 E.02149
G1 X160.045 Y108.732 E.02147
G1 X159.759 Y108.319 E.01713
G1 X159.687 Y108.214 E.00434
G1 X159.463 Y107.625 E.02149
G1 X159.387 Y107 E.02147
G1 X159.463 Y106.375 E.02147
G1 X159.687 Y105.786 E.02149
G1 X160.045 Y105.268 E.02147
G1 X160.516 Y104.85 E.02147
G1 X161.02 Y104.585 E.01942
G1 X161.02 Y104.585 F10800
G1 X161.207 Y104.908
G1 F1200
G1 X161.73 Y104.779 E.01837
G1 X162.27 Y104.779 E.01841
G1 X162.714 Y104.889 E.0156
G1 X162.793 Y104.908 E.00277
G1 X163.271 Y105.159 E.01841
G1 X163.674 Y105.517 E.01838
G1 X163.981 Y105.96 E.01838
G1 X164.172 Y106.465 E.01841
G1 X164.237 Y107 E.01838
G1 X164.172 Y107.535 E.01838
G1 X163.981 Y108.04 E.01841
G1 X163.674 Y108.483 E.01838
G1 X163.271 Y108.841 E.01838
G1 X162.793 Y109.092 E.01841
G1 X162.27 Y109.221 E.01837
G1 X161.73 Y109.221 E.01841
G1 X161.207 Y109.092 E.01837
G1 X160.729 Y108.841 E.01841
G1 X160.326 Y108.483 E.01838
G1 X160.066 Y108.107 E.01559
G1 X160.019 Y108.04 E.00279
G1 X159.828 Y107.535 E.01841
G1 X159.763 Y107 E.01838
G1 X159.828 Y106.465 E.01838
G1 X160.019 Y105.96 E.01841
G1 X160.326 Y105.517 E.01838
G1 X160.729 Y105.159 E.01838
G1 X161.154 Y104.936 E.01636
G1 X161.154 Y104.936 F10800
G1 X161.34 Y105.259
;TYPE:External perimeter
G1 F1200
G1 X161.776 Y105.152 E.01531
G1 X162.224 Y105.152 E.01528
G1 X162.625 Y105.251 E.01408
G1 X162.66 Y105.259 E.00122
G1 X163.057 Y105.468 E.0153
G1 X163.393 Y105.766 E.01531
G1 X163.648 Y106.135 E.01529
G1 X163.807 Y106.555 E.01531
G1 X163.862 Y107 E.01529
G1 X163.807 Y107.445 E.01529
G1 X163.648 Y107.865 E.01531
G1 X163.393 Y108.234 E.01529
G1 X163.057 Y108.532 E.01531
G1 X162.66 Y108.741 E.0153
G1 X162.224 Y108.848 E.01531
G1 X161.776 Y108.848 E.01528
G1 X161.34 Y108.741 E.01531
G1 X160.943 Y108.532 E.0153
G1 X160.607 Y108.234 E.01531
G1 X160.372 Y107.895 E.01406
G1 X160.352 Y107.865 E.00123
G1 X160.193 Y107.445 E.01531
G1 X160.138 Y107 E.01529
G1 X160.193 Y106.555 E.01529
G1 X160.352 Y106.135 E.01531
G1 X160.607 Y105.766 E.01529
G1 X160.943 Y105.468 E.01531
G1 X161.287 Y105.287 E.01325
;WIPE_START
G1 F8640
G1 X161.34 Y105.259 E-.01384
G1 X161.776 Y105.152 E-.10366
G1 X162.224 Y105.152 E-.10344
G1 X162.625 Y105.251 E-.09537
G1 X162.66 Y105.259 E-.00829
G1 X163.057 Y105.468 E-.1036
G1 X163.393 Y105.766 E-.1037
G1 X163.648 Y106.135 E-.10357
G1 X163.807 Y106.555 E-.1037
G1 X163.839 Y106.816 E-.06083
;WIPE_END
G1 Z.42 F10800
G1 X137.685 Y104.406
G1 Z.22
G1 E.8 F2100
;TYPE:Perimeter
G1 F1200
G1 X138.315 Y104.406 E.02148
G1 X138.803 Y104.527 E.01714
G1 X138.926 Y104.557 E.00432
G1 X139.484 Y104.85 E.02149
G1 X139.955 Y105.268 E.02147
G1 X140.313 Y105.786 E.02147
G1 X140.537 Y106.375 E.02149
G1 X140.613 Y107 E.02147
G1 X140.537 Y107.625 E.02147
G1 X140.313 Y108.214 E.02149
G1 X139.956 Y108.732 E.02145
G1 X139.484 Y109.15 E.0215
G1 X138.926 Y109.443 E.02149
G1 X138.315 Y109.594 E.02146
G1 X137.685 Y109.594 E.02148
G1 X137.074 Y109.443 E.02146
G1 X136.516 Y109.15 E.02149
G1 X136.045 Y108.732 E.02147
G1 X135.759 Y108.319 E.01713
G1 X135.687 Y108.214 E.00434
G1 X135.463 Y107.625 E.02149
G1 X135.387 Y107 E.02147
G1 X135.463 Y106.375 E.02147
G1 X135.687 Y105.786 E.02149
G1 X136.045 Y105.268 E.02147
G1 X136.516 Y104.85 E.02147
G1 X137.074 Y104.557 E.02149
G1 X137.627 Y104.421 E.01942
G1 X137.627 Y104.421 F10800
G1 X137.73 Y104.779
G1 F1200
G1 X138.27 Y104.779 E.01841
G1 X138.714 Y104.889 E.0156
G1 X138.793 Y104.908 E.00277
G1 X139.271 Y105.159 E.01841
G1 X139.674 Y105.517 E.01838
G1 X139.981 Y105.96 E.01838
G1 X140.172 Y106.465 E.01841
G1 X140.237 Y107 E.01838
G1 X140.172 Y107.535 E.01838
G1 X139.981 Y108.04 E.01841
G1 X139.674 Y108.483 E.01838
