; generated by PrusaSlicer 2.8.0+win64 on 2024-07-01 at 09:12:15 UTC


;
;

;
;
; 

; external perimeters extrusion width = 0.45mm
; perimeters extrusion width = 0.45mm
; infill extrusion width = 0.45mm
; solid infill extrusion width = 0.45mm
; top infill extrusion width = 0.40mm
; first layer extrusion width = 0.42mm

M73 P0 R3

; printing object Serrage-Corps id:0 copy 0
; stop printing object Serrage-Corps id:0 copy 0

;TYPE:Custom
M104 S215 ; set extruder temp
M140 S74 ; set bed temp
M190 S74 ; wait for bed temp
M109 S215 ; wait for extruder temp
G1 Z5 F15000 ; lift
G1 X299 Y160 F4500 ; move to prime
G1 Z0.29 F4500 ; get ready to prime
M73 P2 R3
G92 E0 ; reset extrusion distance
G1 Y150 E9.0 F600 ; prime nozzle
G1 Y110 E12.5 F600 ; prime nozzle
G1 Y80 F5000 ; quick wipe
M73 P4 R3
G21 ; set units to millimeters
G90 ; use absolute coordinates
M83 ; use relative distances for extrusion
M900 K0.05 ; Filament gcode LA 1.5
M900 K30 ; Filament gcode LA 1.0
M107
;LAYER_CHANGE
;Z:0.22
;HEIGHT:0.22
G1 E-.8 F2100
M73 P5 R3
G1 Z.42 F10800
G1 X137.833 Y96.139
G1 Z.22
G1 E.8 F2100
M204 S1000
;TYPE:Skirt/Brim
;WIDTH:0.42
G1 F1200
G1 X138.889 Y95.194 E.04832
G1 X140 Y94.941 E.03885
G1 X160 Y94.941 E.68194
G1 X161.361 Y95.333 E.04829
M73 P6 R3
G1 X162.306 Y96.389 E.04832
G1 X162.559 Y97.5 E.03885
G1 X162.559 Y102.5 E.17049
G1 X162.167 Y103.861 E.04829
G1 X161.111 Y104.806 E.04832
G1 X160 Y105.059 E.03885
G1 X140 Y105.059 E.68194
G1 X138.639 Y104.667 E.04829
G1 X137.694 Y103.611 E.04832
G1 X137.441 Y102.5 E.03885
G1 X137.441 Y97.5 E.17049
G1 X137.816 Y96.196 E.04626
M73 P7 R3
G1 X137.816 Y96.196 F10800
G1 X138.186 Y96.312
G1 F1200
G1 X138.204 Y96.252 E.00214
G1 X139.237 Y95.451 E.04457
G1 X140 Y95.314 E.02643
G1 X160 Y95.314 E.68194
G1 X161.248 Y95.704 E.04458
G1 X162.049 Y96.737 E.04457
G1 X162.186 Y97.5 E.02643
G1 X162.186 Y102.5 E.17049
G1 X161.796 Y103.748 E.04458
G1 X160.763 Y104.549 E.04457
G1 X160 Y104.686 E.02643
G1 X140 Y104.686 E.68194
G1 X138.752 Y104.296 E.04458
M73 P8 R3
G1 X137.951 Y103.263 E.04457
G1 X137.814 Y102.5 E.02643
G1 X137.814 Y97.5 E.17049
G1 X138.168 Y96.369 E.04041
;WIPE_START
G1 F8640
G1 X138.186 Y96.312 E-.0138
G1 X138.204 Y96.252 E-.01446
G1 X139.237 Y95.451 E-.30183
G1 X140 Y95.314 E-.179
G1 X141.26 Y95.314 E-.29091
;WIPE_END
G1 Z.42 F10800
; printing object Serrage-Corps id:0 copy 0
G1 X154.271 Y98.828
G1 Z.22
G1 E.8 F2100
;TYPE:Perimeter
G1 F1200
G1 X154.152 Y99.106 E.01031
G1 X154.03 Y99.698 E.02061
G1 X154.03 Y100.302 E.02059
G1 X154.152 Y100.894 E.02061
G1 X154.271 Y101.172 E.01031
G1 X145.745 Y101.172 E.29071
G1 X145.924 Y100.601 E.0204
M73 P9 R3
G1 X145.985 Y100 E.0206
G1 X145.924 Y99.399 E.0206
G1 X145.745 Y98.828 E.0204
G1 X154.211 Y98.828 E.28867
G1 X154.211 Y98.828 F10800
G1 X154.911 Y98.456
G1 F1200
G1 X154.718 Y98.733 E.01151
G1 X154.509 Y99.219 E.01804
G1 X154.403 Y99.736 E.01799
G1 X154.403 Y100.264 E.018
G1 X154.509 Y100.781 E.01799
G1 X154.718 Y101.267 E.01804
G1 X154.911 Y101.544 E.01151
G1 X145.113 Y101.544 E.33408
G1 X145.399 Y101.029 E.02009
G1 X145.557 Y100.525 E.01801
G1 X145.611 Y100 E.018
G1 X145.557 Y99.475 E.018
G1 X145.399 Y98.971 E.01801
G1 X145.113 Y98.456 E.02009
G1 X154.851 Y98.456 E.33204
G1 X154.851 Y98.456 F10800
G1 X155.717 Y98.151
G1 F1200
G1 X155.304 Y98.544 E.01944
G1 X155.045 Y98.915 E.01543
G1 X154.867 Y99.331 E.01543
M73 P10 R3
G1 X154.776 Y99.774 E.01542
G1 X154.776 Y100.226 E.01541
G1 X154.867 Y100.669 E.01542
G1 X155.045 Y101.085 E.01543
G1 X155.304 Y101.456 E.01543
G1 X155.788 Y101.917 E.02279
G1 X144.404 Y101.917 E.38816
G1 X144.353 Y101.766 E.00543
G1 X144.54 Y101.62 E.00809
G1 X144.835 Y101.277 E.01543
G1 X145.055 Y100.882 E.01542
G1 X145.19 Y100.45 E.01543
G1 X145.236 Y100 E.01542
G1 X145.19 Y99.55 E.01542
G1 X145.055 Y99.118 E.01543
G1 X144.835 Y98.723 E.01542
G1 X144.54 Y98.38 E.01543
G1 X144.353 Y98.234 E.00809
G1 X144.404 Y98.083 E.00543
G1 X155.788 Y98.083 E.38816
G1 X155.761 Y98.109 E.00128
;WIPE_START
G1 F8640
G1 X155.717 Y98.151 E-.01405
G1 X155.304 Y98.544 E-.13164
G1 X155.045 Y98.915 E-.10447
G1 X154.867 Y99.331 E-.10448
G1 X154.776 Y99.774 E-.10443
G1 X154.776 Y100.226 E-.10437
G1 X154.867 Y100.669 E-.10443
G1 X155.045 Y101.085 E-.10448
G1 X155.113 Y101.183 E-.02765
;WIPE_END
G1 Z.42 F10800
G1 X156.534 Y101.802
G1 Z.22
G1 E.8 F2100
;TYPE:External perimeter
G1 F1200
G1 X156.18 Y101.671 E.01287
G1 X155.861 Y101.472 E.01282
G1 X155.588 Y101.212 E.01285
G1 X155.373 Y100.903 E.01284
G1 X155.224 Y100.557 E.01285
G1 X155.148 Y100.188 E.01285
G1 X155.148 Y99.812 E.01282
G1 X155.224 Y99.443 E.01285
G1 X155.373 Y99.097 E.01285
G1 X155.588 Y98.788 E.01284
G1 X155.861 Y98.528 E.01285
G1 X156.18 Y98.329 E.01282
G1 X156.534 Y98.198 E.01287
G1 X156.866 Y98.147 E.01145
G1 X156.906 Y98.141 E.00138
G1 X157.282 Y98.16 E.01284
G1 X157.646 Y98.255 E.01283
G1 X157.984 Y98.421 E.01284
M73 P11 R3
G1 X158.282 Y98.651 E.01284
G1 X158.528 Y98.937 E.01286
G1 X158.71 Y99.266 E.01282
G1 X158.823 Y99.625 E.01283
G1 X158.861 Y100 E.01285
G1 X158.823 Y100.375 E.01285
G1 X158.71 Y100.734 E.01283
G1 X158.528 Y101.063 E.01282
G1 X158.282 Y101.349 E.01286
G1 X157.984 Y101.579 E.01284
G1 X157.646 Y101.745 E.01284
G1 X157.282 Y101.84 E.01283
G1 X156.906 Y101.859 E.01284
G1 X156.593 Y101.811 E.0108
;WIPE_START
G1 F8640
G1 X156.534 Y101.802 E-.01378
G1 X156.18 Y101.671 E-.08716
G1 X155.861 Y101.472 E-.08682
G1 X155.588 Y101.212 E-.08705
G1 X155.373 Y100.903 E-.08692
G1 X155.224 Y100.557 E-.08699
G1 X155.148 Y100.188 E-.08699
G1 X155.148 Y99.812 E-.08682
G1 X155.224 Y99.443 E-.08699
G1 X155.373 Y99.097 E-.08699
G1 X155.382 Y99.085 E-.00349
;WIPE_END
G1 Z.42 F10800
G1 X159.205 Y99.696
G1 Z.22
G1 E.8 F2100
;TYPE:Perimeter
G1 F1200
G1 X159.19 Y99.55 E.005
G1 X159.055 Y99.118 E.01543
G1 X158.835 Y98.723 E.01542
G1 X158.54 Y98.38 E.01543
G1 X158.353 Y98.234 E.00809
G1 X158.404 Y98.083 E.00543
G1 X159.417 Y98.083 E.03454
G1 X159.417 Y99.685 E.05462
G1 X159.265 Y99.693 E.00519
;WIPE_START
G1 F8640
G1 X159.205 Y99.696 E-.01387
G1 X159.19 Y99.55 E-.03389
G1 X159.055 Y99.118 E-.10451
G1 X158.835 Y98.723 E-.1044
G1 X158.54 Y98.38 E-.10446
G1 X158.353 Y98.234 E-.05478
G1 X158.404 Y98.083 E-.0368
G1 X159.417 Y98.083 E-.2339
G1 X159.417 Y98.574 E-.11339
;WIPE_END
G1 Z.42 F10800
G1 X158.404 Y101.917
G1 Z.22
G1 E.8 F2100
G1 F1200
G1 X158.353 Y101.766 E.00543
G1 X158.54 Y101.62 E.00809
G1 X158.835 Y101.277 E.01543
G1 X159.055 Y100.882 E.01542
G1 X159.19 Y100.45 E.01543
G1 X159.205 Y100.304 E.005
G1 X159.417 Y100.315 E.00724
G1 X159.417 Y101.917 E.05462
G1 X158.464 Y101.917 E.03249
;WIPE_START
G1 F8640
G1 X158.404 Y101.917 E-.01385
G1 X158.353 Y101.766 E-.0368
G1 X158.54 Y101.62 E-.05478
G1 X158.835 Y101.277 E-.10446
G1 X159.055 Y100.882 E-.1044
G1 X159.19 Y100.45 E-.10451
G1 X159.205 Y100.304 E-.03389
G1 X159.417 Y100.315 E-.04902
G1 X159.417 Y101.607 E-.29829
;WIPE_END
G1 Z.42 F10800
G1 X142.534 Y98.198
G1 Z.22
G1 E.8 F2100
;TYPE:External perimeter
G1 F1200
G1 X142.866 Y98.147 E.01145
G1 X142.906 Y98.141 E.00138
G1 X143.282 Y98.16 E.01284
G1 X143.646 Y98.255 E.01283
G1 X143.984 Y98.421 E.01284
G1 X144.282 Y98.651 E.01284
G1 X144.528 Y98.937 E.01286
M73 P12 R3
G1 X144.71 Y99.266 E.01282
G1 X144.823 Y99.625 E.01283
G1 X144.861 Y100 E.01285
G1 X144.823 Y100.375 E.01285
G1 X144.71 Y100.734 E.01283
G1 X144.528 Y101.063 E.01282
G1 X144.282 Y101.349 E.01286
G1 X143.984 Y101.579 E.01284
G1 X143.646 Y101.745 E.01284
G1 X143.282 Y101.84 E.01283
G1 X142.906 Y101.859 E.01284
G1 X142.534 Y101.802 E.01283
G1 X142.18 Y101.671 E.01287
G1 X141.861 Y101.472 E.01282
G1 X141.588 Y101.212 E.01285
G1 X141.373 Y100.903 E.01284
G1 X141.224 Y100.557 E.01285
G1 X141.148 Y100.188 E.01285
G1 X141.148 Y99.812 E.01282
G1 X141.224 Y99.443 E.01285
G1 X141.373 Y99.097 E.01285
G1 X141.588 Y98.788 E.01284
G1 X141.861 Y98.528 E.01285
G1 X142.18 Y98.329 E.01282
G1 X142.477 Y98.219 E.0108
G1 X142.477 Y98.219 F10800
G1 X141.788 Y98.083
;TYPE:Perimeter
G1 F1200
G1 X141.304 Y98.544 E.02279
G1 X141.045 Y98.915 E.01543
G1 X140.867 Y99.331 E.01543
G1 X140.784 Y99.734 E.01403
G1 X140.583 Y99.714 E.00689
G1 X140.583 Y98.083 E.05561
G1 X141.728 Y98.083 E.03904
;WIPE_START
G1 F8640
G1 X141.788 Y98.083 E-.01385
G1 X141.304 Y98.544 E-.15434
G1 X141.045 Y98.915 E-.10447
G1 X140.867 Y99.331 E-.10448
G1 X140.784 Y99.734 E-.09501
G1 X140.583 Y99.714 E-.04664
G1 X140.583 Y98.496 E-.28121
;WIPE_END
G1 Z.42 F10800
G1 X140.784 Y100.266
G1 Z.22
G1 E.8 F2100
G1 F1200
G1 X140.867 Y100.669 E.01403
G1 X141.045 Y101.085 E.01543
G1 X141.304 Y101.456 E.01543
G1 X141.788 Y101.917 E.02279
G1 X140.583 Y101.917 E.04109
G1 X140.583 Y100.286 E.05561
G1 X140.724 Y100.272 E.00483
;WIPE_START
G1 F8640
G1 X140.784 Y100.266 E-.01392
G1 X140.867 Y100.669 E-.09501
G1 X141.045 Y101.085 E-.10448
G1 X141.304 Y101.456 E-.10447
G1 X141.788 Y101.917 E-.15434
G1 X140.583 Y101.917 E-.27824
G1 X140.583 Y101.702 E-.04954
;WIPE_END
G1 Z.42 F10800
G1 X159.79 Y102.29
G1 Z.22
G1 E.8 F2100
;TYPE:External perimeter
G1 F1200
G1 X140.21 Y102.29 E.66762
G1 X140.21 Y97.71 E.15616
M73 P13 R3
G1 X159.79 Y97.71 E.66762
G1 X159.79 Y102.23 E.15412
G1 X159.012 Y101.731 F10800
M73 P14 R3
;TYPE:Gap fill
;WIDTH:0.322394
G1 F1200
G1 X159.231 Y101.037 E.01832
G1 X159.231 Y101.037 F10800
G1 X159.043 Y100.109
;WIDTH:0.308788
G1 F1200
G1 X159.164 Y100 E.0039
G1 X159.604 Y100 E.01053
;WIPE_START
G1 F8640
G1 X159.164 Y100 E-.1016
G1 X159.043 Y100.109 E-.0376
;WIPE_END
G1 E-.6608 F2100
G1 Z.42 F10800
G1 X159.231 Y98.963
G1 Z.22
G1 E.8 F2100
;WIDTH:0.322392
G1 F1200
G1 X159.012 Y98.269 E.01832
;WIPE_START
G1 F8640
G1 X159.231 Y98.963 E-.16804
;WIPE_END
G1 E-.63196 F2100
G1 Z.42 F10800
G1 X157.993 Y97.896
G1 Z.22
G1 E.8 F2100
;WIDTH:0.152416
G1 F1200
G1 X158.135 Y98.294 E.00407
G1 X158.135 Y98.294 F10800
G1 X158.21 Y98.075
;WIDTH:0.239729
G1 F1200
G1 X157.735 Y97.989 E.0085
G1 X157.458 Y97.954 E.00492
;WIDTH:0.162473
G1 X157.312 Y97.936 E.00155
G1 X156.898 Y97.925 E.00437
;WIDTH:0.105348
G1 X156.655 Y97.943 E.0013
;WIDTH:0.168468
G1 X156.477 Y97.957 E.00198
G1 X156.295 Y97.989 E.00205
;WIDTH:0.233534
G1 X156.126 Y98.019 E.00293
G1 X156.126 Y98.019 F10800
G1 X155.923 Y98.243
;WIDTH:0.13415
G1 F1200
G1 X156.076 Y98.125 E.00154
G1 X156.405 Y97.896 E.00319
;WIPE_START
G1 F8640
G1 X156.076 Y98.125 E-.09256
G1 X155.923 Y98.243 E-.04461
;WIPE_END
G1 E-.66283 F2100
G1 Z.42 F10800
G1 X153.949 Y99.539
G1 Z.22
G1 E.8 F2100
;TYPE:Solid infill
;WIDTH:0.423722
G1 F1200
G1 X153.517 Y99.108 E.02101
G1 X152.985 Y99.108 E.01832
G1 X153.751 Y99.874 E.03731
G1 X153.751 Y100.33 E.0157
G1 X153.77 Y100.426 E.00337
G1 X152.452 Y99.108 E.06419
G1 X151.92 Y99.108 E.01832
G1 X153.704 Y100.892 E.08688
G1 X153.171 Y100.892 E.01836
G1 X151.387 Y99.108 E.08688
G1 X150.855 Y99.108 E.01832
G1 X152.639 Y100.892 E.08688
G1 X152.107 Y100.892 E.01832
G1 X150.322 Y99.108 E.08691
G1 X149.79 Y99.108 E.01832
M73 P15 R3
G1 X151.574 Y100.892 E.08688
G1 X151.042 Y100.892 E.01832
G1 X149.257 Y99.108 E.08691
G1 X148.725 Y99.108 E.01832
G1 X150.509 Y100.892 E.08688
G1 X149.977 Y100.892 E.01832
G1 X148.193 Y99.108 E.08688
G1 X147.66 Y99.108 E.01836
G1 X149.444 Y100.892 E.08688
G1 X148.912 Y100.892 E.01832
G1 X147.128 Y99.108 E.08688
G1 X146.595 Y99.108 E.01836
G1 X148.379 Y100.892 E.08688
G1 X147.847 Y100.892 E.01832
G1 X146.328 Y99.373 E.07398
G1 X146.205 Y99.398 E.00432
G1 X146.249 Y99.826 E.01482
G1 X147.314 Y100.892 E.05189
G1 X146.782 Y100.892 E.01832
G1 X146.078 Y100.189 E.03426
G1 X146.078 Y100.189 F10800
G1 X146.063 Y100.858
;TYPE:Gap fill
;WIDTH:0.112091
G1 F1200
G1 X146.036 Y100.985 E.00077
;WIPE_START
G1 F8640
G1 X146.063 Y100.858 E-.02998
;WIPE_END
G1 E-.77002 F2100
G1 Z.42 F10800
G1 X144.861 Y101.568
G1 Z.22
G1 E.8 F2100
;WIDTH:0.123262
G1 F1200
G1 X144.748 Y101.731 E.00138
G1 X144.748 Y101.731 F10800
G1 X143.993 Y102.104
;WIDTH:0.152421
G1 F1200
G1 X144.135 Y101.706 E.00407
G1 X144.135 Y101.706 F10800
G1 X144.21 Y101.925
;WIDTH:0.23973
G1 F1200
G1 X143.735 Y102.011 E.0085
G1 X143.458 Y102.046 E.00492
;WIDTH:0.162475
G1 X143.312 Y102.064 E.00155
G1 X142.898 Y102.075 E.00437
;WIDTH:0.105351
G1 X142.685 Y102.059 E.00114
;WIDTH:0.16847
G1 X142.477 Y102.043 E.00231
G1 X142.295 Y102.011 E.00205
;WIDTH:0.233538
G1 X142.126 Y101.981 E.00293
G1 X142.126 Y101.981 F10800
G1 X141.923 Y101.757
;WIDTH:0.13415
G1 F1200
G1 X142.076 Y101.875 E.00154
G1 X142.404 Y102.104 E.00318
;WIPE_START
G1 F8640
G1 X142.076 Y101.875 E-.09237
G1 X141.923 Y101.757 E-.04461
;WIPE_END
G1 E-.66302 F2100
G1 Z.42 F10800
G1 X141.292 Y101.731
M73 P16 R3
G1 Z.22
G1 E.8 F2100
;WIDTH:0.241264
G1 F1200
G1 X140.769 Y101.49 E.01022
G1 X140.769 Y101.49 F10800
G1 X140.966 Y101.731
;WIDTH:0.170404
G1 F1200
G1 X140.78 Y101.015 E.00834
;WIPE_START
G1 F8640
G1 X140.966 Y101.731 E-.17081
;WIPE_END
G1 E-.62919 F2100
G1 Z.42 F10800
G1 X140.962 Y100
G1 Z.22
G1 E.8 F2100
;WIDTH:0.220481
G1 F1200
G1 X140.396 Y100 E.00897
;WIPE_START
G1 F8640
G1 X140.962 Y100 E-.13069
;WIPE_END
G1 E-.66931 F2100
G1 Z.42 F10800
G1 X140.78 Y98.985
G1 Z.22
G1 E.8 F2100
;WIDTH:0.170403
G1 F1200
G1 X140.966 Y98.269 E.00834
G1 X140.966 Y98.269 F10800
G1 X140.769 Y98.51
;WIDTH:0.24126
G1 F1200
G1 X141.292 Y98.269 E.01022
;WIPE_START
G1 F8640
G1 X140.769 Y98.51 E-.13297
;WIPE_END
G1 E-.66703 F2100
G1 Z.42 F10800
G1 X142.405 Y97.896
G1 Z.22
G1 E.8 F2100
;WIDTH:0.13415
G1 F1200
G1 X142.076 Y98.125 E.00319
G1 X141.923 Y98.243 E.00154
G1 X141.923 Y98.243 F10800
G1 X142.126 Y98.019
;WIDTH:0.233534
G1 F1200
G1 X142.295 Y97.989 E.00293
;WIDTH:0.168468
G1 X142.477 Y97.957 E.00205
G1 X142.655 Y97.943 E.00198
;WIDTH:0.105348
G1 X142.898 Y97.925 E.0013
;WIDTH:0.162473
G1 X143.312 Y97.936 E.00437
G1 X143.458 Y97.954 E.00155
;WIDTH:0.239729
G1 X143.735 Y97.989 E.00492
G1 X144.21 Y98.075 E.0085
G1 X144.21 Y98.075 F10800
G1 X144.135 Y98.294
;WIDTH:0.152418
G1 F1200
G1 X143.993 Y97.896 E.00407
G1 X143.993 Y97.896 F10800
G1 X144.748 Y98.269
;WIDTH:0.123261
G1 F1200
G1 X144.861 Y98.432 E.00138
;WIPE_START
G1 F8640
G1 X144.748 Y98.269 E-.0458
;WIPE_END
G1 E-.7542 F2100
G1 Z.42 F10800
G1 X146.036 Y99.015
G1 Z.22
G1 E.8 F2100
;WIDTH:0.112092
G1 F1200
G1 X146.063 Y99.142 E.00077
;WIPE_START
G1 F8640
G1 X146.036 Y99.015 E-.02998
;WIPE_END
G1 E-.77002 F2100
G1 Z.42 F10800
G1 X156.404 Y102.104
M73 P16 R2
G1 Z.22
G1 E.8 F2100
;WIDTH:0.134154
G1 F1200
G1 X156.076 Y101.875 E.00318
G1 X155.923 Y101.757 E.00154
G1 X155.923 Y101.757 F10800
G1 X156.126 Y101.981
;WIDTH:0.23354
G1 F1200
M73 P17 R2
G1 X156.295 Y102.011 E.00293
;WIDTH:0.16847
G1 X156.477 Y102.043 E.00205
G1 X156.685 Y102.059 E.00231
;WIDTH:0.105351
G1 X156.898 Y102.075 E.00114
;WIDTH:0.162475
G1 X157.312 Y102.064 E.00437
G1 X157.458 Y102.046 E.00155
;WIDTH:0.23973
G1 X157.735 Y102.011 E.00492
G1 X158.21 Y101.925 E.0085
G1 X158.21 Y101.925 F10800
G1 X158.135 Y101.706
;WIDTH:0.152421
G1 F1200
G1 X157.993 Y102.104 E.00407
M106 S84.15
;LAYER_CHANGE
;Z:0.42
;HEIGHT:0.2
;BEFORE_LAYER_CHANGE
G92 E0.0
;0.42
;WIPE_START
G1 F8640
G1 X158.135 Y101.706 E-.09757
;WIPE_END
G1 E-.70243 F2100
G1 Z.42 F10800
;AFTER_LAYER_CHANGE
;0.42
M104 S210 ; set temperature
M140 S68 ; set bed temperature
; stop printing object Serrage-Corps id:0 copy 0
G1 Z.62
G1 X158.135 Y105.059
G1 Z.42
G1 E.8 F2100
;TYPE:Skirt/Brim
;WIDTH:0.42
G1 F1621
G1 X140 Y105.059 E.56861
G1 X138.639 Y104.667 E.04441
G1 X137.694 Y103.611 E.04443
G1 X137.441 Y102.5 E.03573
G1 X137.441 Y97.5 E.15677
G1 X137.833 Y96.139 E.04441
G1 X138.889 Y95.194 E.04443
G1 X140 Y94.941 E.03573
G1 X160 Y94.941 E.62709
G1 X161.361 Y95.333 E.04441
M73 P18 R2
G1 X162.306 Y96.389 E.04443
G1 X162.559 Y97.5 E.03573
G1 X162.559 Y102.5 E.15677
G1 X162.167 Y103.861 E.04441
G1 X161.111 Y104.806 E.04443
G1 X160 Y105.059 E.03573
G1 X158.195 Y105.059 E.05659
G1 X158.195 Y105.059 F10800
G1 X158.195 Y104.686
G1 F1621
G1 X140 Y104.686 E.57049
G1 X138.752 Y104.296 E.041
G1 X137.951 Y103.263 E.04099
G1 X137.814 Y102.5 E.02431
G1 X137.814 Y97.5 E.15677
G1 X138.204 Y96.252 E.041
G1 X139.237 Y95.451 E.04099
G1 X140 Y95.314 E.02431
G1 X160 Y95.314 E.62709
G1 X161.248 Y95.704 E.041
M73 P19 R2
G1 X162.049 Y96.737 E.04099
G1 X162.186 Y97.5 E.02431
