; generated by PrusaSlicer 2.8.0+win64 on 2024-07-04 at 14:03:41 UTC


;
;

;
;
; 

; external perimeters extrusion width = 0.45mm
; perimeters extrusion width = 0.45mm
; infill extrusion width = 0.45mm
; solid infill extrusion width = 0.45mm
; top infill extrusion width = 0.40mm
; first layer extrusion width = 0.42mm

M73 P0 R20

; printing object Support Demi Lune-Coprs id:0 copy 0
; stop printing object Support Demi Lune-Coprs id:0 copy 0

;TYPE:Custom
M104 S215 ; set extruder temp
M140 S74 ; set bed temp
M190 S74 ; wait for bed temp
M109 S215 ; wait for extruder temp
G1 Z5 F15000 ; lift
G1 X299 Y160 F4500 ; move to prime
G1 Z0.29 F4500 ; get ready to prime
G92 E0 ; reset extrusion distance
G1 Y150 E9.0 F600 ; prime nozzle
G1 Y110 E12.5 F600 ; prime nozzle
G1 Y80 F5000 ; quick wipe
M73 P0 R19
G21 ; set units to millimeters
G90 ; use absolute coordinates
M83 ; use relative distances for extrusion
M900 K0.05 ; Filament gcode LA 1.5
M900 K30 ; Filament gcode LA 1.0
M107
;LAYER_CHANGE
;Z:0.22
;HEIGHT:0.22
G1 E-.8 F2100
G1 Z.42 F10800
G1 X130.072 Y95.541
G1 Z.22
G1 E.8 F2100
M204 S1000
;TYPE:Skirt/Brim
;WIDTH:0.42
G1 F1200
G1 X131.607 Y93.595 E.08451
G1 X133.183 Y91.955 E.07755
M73 P1 R19
G1 X134.745 Y90.594 E.07064
G1 X136.586 Y89.258 E.07756
G1 X138.544 Y88.099 E.07758
G1 X140.79 Y87.05 E.08452
G1 X142.74 Y86.351 E.07063
G1 X144.941 Y85.777 E.07756
G1 X147.187 Y85.411 E.07759
G1 X152.88 Y85.412 E.19412
G1 X155.12 Y85.784 E.07742
G1 X157.317 Y86.363 E.07747
G1 X159.45 Y87.144 E.07745
G1 X161.501 Y88.119 E.07743
G1 X163.453 Y89.28 E.07744
G1 X165.289 Y90.617 E.07744
G1 X166.993 Y92.12 E.07747
G1 X168.417 Y93.62 E.07052
G1 X169.828 Y95.399 E.07742
G1 X171.069 Y97.302 E.07747
G1 X172.212 Y99.496 E.08435
G1 X173.062 Y101.603 E.07747
G1 X173.712 Y103.779 E.07743
G1 X174.126 Y105.806 E.07054
G1 X174.381 Y108.063 E.07745
G1 X174.426 Y110.334 E.07745
G1 X174.26 Y112.599 E.07744
G1 X173.774 Y113.813 E.04459
G1 X172.08 Y114.616 E.06392
G1 X127.92 Y114.616 E1.50573
G1 X126.673 Y114.226 E.04455
G1 X125.74 Y112.599 E.06395
G1 X125.58 Y110.533 E.07066
G1 X125.619 Y108.055 E.0845
G1 X125.845 Y105.996 E.07063
G1 X126.292 Y103.765 E.07758
G1 X127.013 Y101.394 E.0845
G1 X127.798 Y99.477 E.07063
G1 X128.843 Y97.456 E.07758
G1 X130.039 Y95.592 E.07552
;WIPE_START
G1 F8640
G1 X130.072 Y95.541 E-.01403
G1 X131.607 Y93.595 E-.5723
G1 X132.248 Y92.928 E-.21367
;WIPE_END
G1 Z.42 F10800
; printing object Support Demi Lune-Coprs id:0 copy 0
G1 X153.355 Y95.718
G1 Z.22
G1 E.8 F2100
;TYPE:Perimeter
G1 F1200
G1 X154.208 Y96.571 E.04113
G1 X154.85 Y97.593 E.04115
G1 X155.248 Y98.731 E.04111
G1 X155.383 Y99.93 E.04114
G1 X155.248 Y101.129 E.04114
G1 X154.85 Y102.267 E.04111
G1 X154.208 Y103.289 E.04115
G1 X153.355 Y104.142 E.04113
G1 X152.333 Y104.783 E.04113
G1 X151.195 Y105.182 E.04112
G1 X149.996 Y105.317 E.04114
G1 X148.798 Y105.182 E.04111
G1 X147.659 Y104.783 E.04115
G1 X146.638 Y104.142 E.04111
G1 X145.785 Y103.289 E.04113
G1 X145.143 Y102.267 E.04115
G1 X144.745 Y101.129 E.04111
G1 X144.609 Y99.93 E.04114
G1 X144.745 Y98.731 E.04114
G1 X145.143 Y97.593 E.04111
G1 X145.785 Y96.571 E.04115
G1 X146.638 Y95.718 E.04113
G1 X147.662 Y95.075 E.04123
G1 X148.793 Y94.68 E.04085
G1 X149.932 Y94.549 E.03909
G1 X150.116 Y94.556 E.00628
G1 X151.094 Y94.666 E.03356
G1 X151.271 Y94.704 E.00617
G1 X152.33 Y95.075 E.03826
G1 X153.304 Y95.686 E.0392
G1 X153.304 Y95.686 F10800
G1 X153.121 Y96.012
G1 F1200
G1 X153.914 Y96.805 E.03824
G1 X154.512 Y97.756 E.0383
G1 X154.882 Y98.815 E.03825
G1 X155.008 Y99.93 E.03826
G1 X154.882 Y101.045 E.03826
G1 X154.512 Y102.104 E.03825
G1 X153.914 Y103.055 E.0383
G1 X153.121 Y103.848 E.03824
G1 X152.171 Y104.445 E.03826
G1 X151.111 Y104.816 E.03829
G1 X149.996 Y104.942 E.03826
G1 X148.881 Y104.816 E.03826
G1 X147.822 Y104.445 E.03826
G1 X146.872 Y103.848 E.03826
G1 X146.078 Y103.055 E.03826
G1 X145.481 Y102.104 E.03829
G1 X145.11 Y101.045 E.03826
G1 X144.985 Y99.93 E.03826
G1 X145.11 Y98.815 E.03826
G1 X145.481 Y97.756 E.03826
G1 X146.078 Y96.805 E.03829
G1 X146.872 Y96.012 E.03826
G1 X147.825 Y95.413 E.03838
G1 X148.876 Y95.045 E.03797
G1 X149.947 Y94.923 E.03675
G1 X150.089 Y94.928 E.00484
G1 X151.034 Y95.034 E.03242
G1 X151.169 Y95.063 E.00471
G1 X152.168 Y95.413 E.03609
G1 X153.07 Y95.98 E.03633
G1 X153.07 Y95.98 F10800
G1 X152.887 Y96.305
G1 F1200
G1 X153.621 Y97.039 E.03539
G1 X154.174 Y97.918 E.03541
G1 X154.516 Y98.898 E.03539
G1 X154.633 Y99.93 E.03541
G1 X154.516 Y100.962 E.03541
G1 X154.174 Y101.942 E.03539
G1 X153.621 Y102.821 E.03541
G1 X152.887 Y103.555 E.03539
G1 X152.008 Y104.107 E.03539
G1 X151.028 Y104.45 E.0354
G1 X149.996 Y104.566 E.03541
G1 X148.965 Y104.45 E.03538
G1 X147.985 Y104.107 E.0354
G1 X147.105 Y103.555 E.03542
G1 X146.371 Y102.821 E.03539
G1 X145.819 Y101.942 E.03539
G1 X145.476 Y100.962 E.0354
G1 X145.36 Y99.93 E.03541
G1 X145.476 Y98.898 E.03541
G1 X145.819 Y97.918 E.0354
G1 X146.371 Y97.039 E.03539
G1 X147.106 Y96.305 E.03542
G1 X147.988 Y95.751 E.03551
G1 X148.96 Y95.411 E.03511
G1 X149.962 Y95.296 E.03439
G1 X150.062 Y95.3 E.00341
G1 X150.974 Y95.402 E.03129
G1 X151.068 Y95.423 E.00328
G1 X152.005 Y95.751 E.03385
G1 X152.836 Y96.273 E.03346
G1 X152.836 Y96.273 F10800
G1 X152.653 Y96.598
;TYPE:External perimeter
G1 F1200
G1 X153.328 Y97.273 E.03255
G1 X153.836 Y98.081 E.03254
G1 X154.151 Y98.982 E.03254
G1 X154.258 Y99.93 E.03253
G1 X154.151 Y100.878 E.03253
M73 P2 R19
G1 X153.836 Y101.779 E.03254
G1 X153.328 Y102.587 E.03254
G1 X152.653 Y103.262 E.03255
G1 X151.845 Y103.769 E.03253
G1 X150.944 Y104.084 E.03254
G1 X149.996 Y104.191 E.03253
G1 X149.048 Y104.084 E.03253
G1 X148.147 Y103.769 E.03254
G1 X147.339 Y103.262 E.03253
G1 X146.665 Y102.587 E.03252
G1 X146.157 Y101.779 E.03254
G1 X145.842 Y100.878 E.03254
G1 X145.735 Y99.93 E.03253
G1 X145.842 Y98.982 E.03253
G1 X146.157 Y98.081 E.03254
G1 X146.665 Y97.273 E.03254
G1 X147.339 Y96.598 E.03252
G1 X148.151 Y96.089 E.03268
G1 X149.044 Y95.777 E.03225
G1 X149.977 Y95.67 E.03202
G1 X150.034 Y95.672 E.00194
G1 X150.913 Y95.771 E.03016
G1 X150.967 Y95.782 E.00188
G1 X151.842 Y96.089 E.03162
G1 X152.602 Y96.566 E.0306
;WIPE_START
G1 F8640
G1 X152.653 Y96.598 E-.0139
G1 X153.328 Y97.273 E-.22042
G1 X153.836 Y98.081 E-.22038
G1 X154.151 Y98.982 E-.22039
G1 X154.211 Y99.52 E-.12491
;WIPE_END
G1 Z.42 F10800
G1 X170.851 Y111.102
G1 Z.22
G1 E.8 F2100
;TYPE:Perimeter
G1 F1200
G1 X129.149 Y111.102 E1.42192
G1 X129.089 Y110.324 E.02661
G1 X129.12 Y108.376 E.06643
G1 X129.332 Y106.44 E.06641
G1 X129.723 Y104.531 E.06644
G1 X130.29 Y102.668 E.0664
G1 X131.027 Y100.865 E.06641
G1 X131.929 Y99.139 E.0664
G1 X132.988 Y97.504 E.06642
G1 X134.195 Y95.975 E.06642
G1 X135.538 Y94.564 E.06642
G1 X137.007 Y93.285 E.06641
G1 X138.588 Y92.148 E.0664
G1 X140.268 Y91.162 E.06642
G1 X142.033 Y90.338 E.06642
G1 X143.867 Y89.681 E.06643
G1 X145.754 Y89.197 E.06642
G1 X147.635 Y88.898 E.06494
G1 X152.423 Y88.898 E.16326
G1 X154.298 Y89.202 E.06477
G1 X156.181 Y89.69 E.06633
G1 X158.01 Y90.35 E.0663
G1 X159.77 Y91.178 E.06632
G1 X161.446 Y92.165 E.06632
G1 X163.022 Y93.304 E.0663
G1 X164.486 Y94.584 E.06631
G1 X165.825 Y95.995 E.06633
G1 X167.027 Y97.523 E.06629
G1 X168.083 Y99.157 E.06634
G1 X168.981 Y100.882 E.06631
G1 X169.716 Y102.682 E.06629
G1 X170.281 Y104.543 E.06631
G1 X170.67 Y106.449 E.06633
G1 X170.881 Y108.382 E.0663
G1 X170.911 Y110.327 E.06633
G1 X170.855 Y111.042 E.02445
G1 X170.855 Y111.042 F10800
G1 X171.196 Y111.474
G1 F1200
G1 X128.804 Y111.474 E1.44545
G1 X128.716 Y110.335 E.03895
G1 X128.747 Y108.353 E.06759
G1 X128.963 Y106.382 E.06761
G1 X129.361 Y104.44 E.06759
G1 X129.938 Y102.543 E.06761
G1 X130.689 Y100.708 E.06761
G1 X131.607 Y98.951 E.06759
G1 X132.685 Y97.287 E.0676
G1 X133.913 Y95.73 E.06761
G1 X135.28 Y94.294 E.0676
G1 X136.775 Y92.992 E.0676
G1 X138.385 Y91.835 E.0676
G1 X140.095 Y90.832 E.0676
G1 X141.891 Y89.993 E.06759
G1 X143.758 Y89.324 E.06762
G1 X145.678 Y88.832 E.06758
G1 X147.606 Y88.526 E.06656
G1 X152.453 Y88.526 E.16527
G1 X154.375 Y88.837 E.06639
G1 X156.291 Y89.333 E.06748
G1 X158.153 Y90.006 E.06751
G1 X159.945 Y90.848 E.06751
G1 X161.65 Y91.853 E.06748
G1 X163.255 Y93.012 E.0675
G1 X164.745 Y94.315 E.06749
G1 X166.108 Y95.751 E.06751
G1 X167.331 Y97.307 E.06748
G1 X168.405 Y98.969 E.06747
M73 P3 R19
G1 X169.32 Y100.725 E.06752
G1 X170.068 Y102.557 E.06747
G1 X170.642 Y104.452 E.06751
G1 X171.039 Y106.391 E.06749
G1 X171.253 Y108.359 E.0675
G1 X171.284 Y110.338 E.06749
G1 X171.2 Y111.415 E.03683
G1 X171.2 Y111.415 F10800
G1 X171.541 Y111.847
G1 F1200
G1 X128.459 Y111.847 E1.46897
G1 X128.343 Y110.347 E.0513
G1 X128.375 Y108.329 E.06882
G1 X128.594 Y106.324 E.06877
G1 X128.999 Y104.348 E.06878
G1 X129.586 Y102.418 E.06878
G1 X130.35 Y100.551 E.06878
G1 X131.285 Y98.763 E.0688
G1 X132.381 Y97.069 E.0688
G1 X133.631 Y95.486 E.06877
G1 X135.022 Y94.025 E.06878
G1 X136.543 Y92.7 E.06878
G1 X138.181 Y91.522 E.06879
G1 X139.921 Y90.502 E.06877
G1 X141.749 Y89.648 E.0688
G1 X143.648 Y88.967 E.06879
G1 X145.602 Y88.467 E.06877
G1 X147.576 Y88.153 E.06815
G1 X152.483 Y88.153 E.16731
G1 X154.452 Y88.472 E.06801
G1 X156.402 Y88.977 E.06868
G1 X158.296 Y89.661 E.06866
G1 X160.119 Y90.518 E.06869
G1 X161.854 Y91.541 E.06868
G1 X163.487 Y92.72 E.06868
G1 X165.003 Y94.046 E.06867
G1 X166.39 Y95.506 E.06866
G1 X167.635 Y97.09 E.0687
G1 X168.728 Y98.782 E.06868
G1 X169.659 Y100.568 E.06867
G1 X170.42 Y102.433 E.06868
G1 X171.004 Y104.36 E.06866
G1 X171.407 Y106.334 E.0687
G1 X171.626 Y108.336 E.06867
G1 X171.657 Y110.35 E.06868
G1 X171.545 Y111.787 E.04915
G1 X171.545 Y111.787 F10800
G1 X171.886 Y112.22
;TYPE:External perimeter
G1 F1200
G1 X128.114 Y112.22 E1.4925
G1 X127.97 Y110.358 E.06368
G1 X128.002 Y108.306 E.06998
G1 X128.226 Y106.266 E.06998
G1 X128.638 Y104.256 E.06996
G1 X129.235 Y102.293 E.06996
G1 X130.012 Y100.393 E.06999
G1 X130.962 Y98.575 E.06994
G1 X132.078 Y96.852 E.07
G1 X133.337 Y95.256 E.06931
G1 X133.349 Y95.241 E.00065
G1 X134.764 Y93.755 E.06997
G1 X136.312 Y92.407 E.06999
G1 X137.978 Y91.209 E.06997
G1 X139.748 Y90.171 E.06996
G1 X141.607 Y89.303 E.06996
G1 X143.539 Y88.61 E.06999
G1 X145.527 Y88.101 E.06997
G1 X147.547 Y87.78 E.06974
G1 X152.513 Y87.78 E.16933
G1 X154.529 Y88.106 E.06963
G1 X156.512 Y88.62 E.06985
G1 X158.439 Y89.316 E.06986
G1 X160.293 Y90.188 E.06986
G1 X162.058 Y91.228 E.06985
G1 X163.719 Y92.428 E.06987
G1 X165.262 Y93.776 E.06986
G1 X166.672 Y95.262 E.06985
G1 X167.939 Y96.873 E.06988
G1 X169.05 Y98.594 E.06985
G1 X169.997 Y100.411 E.06986
G1 X170.771 Y102.308 E.06986
G1 X171.366 Y104.269 E.06987
G1 X171.776 Y106.276 E.06985
M73 P4 R19
G1 X171.998 Y108.313 E.06987
G1 X172.03 Y110.361 E.06984
G1 X171.89 Y112.16 E.06153
;WIPE_START
G1 F8640
G1 X171.886 Y112.22 E-.01388
G1 X168.481 Y112.22 E-.78612
;WIPE_END
G1 Z.42 F10800
G1 X162.75 Y93.245
G1 Z.22
G1 E.8 F2100
;TYPE:Solid infill
;WIDTH:0.422948
G1 F1200
G1 X164.329 Y94.824 E.07674
G1 X165.614 Y96.178 E.06415
G1 X166.8 Y97.686 E.06593
G1 X167.056 Y98.083 E.01623
G1 X161.582 Y92.608 E.26607
G1 X161.293 Y92.4 E.01224
G1 X160.194 Y91.753 E.04383
G1 X167.951 Y99.509 E.37698
G1 X168.529 Y100.619 E.04301
G1 X159.067 Y91.156 E.4599
G1 X158.064 Y90.685 E.03808
G1 X168.968 Y101.589 E.52996
G1 X169.334 Y102.487 E.03333
G1 X157.205 Y90.357 E.58952
G1 X156.373 Y90.056 E.03041
G1 X169.609 Y103.293 E.64332
G1 X169.841 Y104.056 E.02741
G1 X155.618 Y89.833 E.69127
G1 X154.901 Y89.647 E.02546
G1 X170.046 Y104.793 E.7361
G1 X170.183 Y105.46 E.0234
G1 X154.19 Y89.468 E.77727
G1 X153.556 Y89.365 E.02207
G1 X170.319 Y106.128 E.81472
G1 X170.393 Y106.492 E.01277
G1 X170.423 Y106.763 E.00937
G1 X152.922 Y89.262 E.85058
G1 X152.401 Y89.178 E.01814
G1 X152.306 Y89.178 E.00326
G1 X170.488 Y107.36 E.88368
G1 X170.553 Y107.956 E.0206
M73 P5 R19
G1 X151.775 Y89.178 E.91265
G1 X151.243 Y89.178 E.01828
G1 X170.603 Y108.538 E.94094
G1 X170.612 Y109.078 E.01856
G1 X150.712 Y89.178 E.96718
G1 X150.181 Y89.178 E.01825
G1 X170.62 Y109.618 E.9934
G1 X170.629 Y110.157 E.01853
G1 X149.649 Y89.178 E1.01965
G1 X149.118 Y89.178 E.01825
G1 X170.604 Y110.664 E1.04426
G1 X170.592 Y110.822 E.00545
M73 P5 R18
G1 X170.231 Y110.822 E.01241
G1 X148.586 Y89.178 E1.05197
G1 X148.055 Y89.178 E.01825
G1 X169.699 Y110.822 E1.05194
G1 X169.168 Y110.822 E.01825
M73 P6 R18
G1 X147.542 Y89.196 E1.05107
G1 X147.084 Y89.269 E.01594
G1 X168.636 Y110.822 E1.0475
G1 X168.105 Y110.822 E.01825
G1 X155.291 Y98.008 E.62279
G1 X155.522 Y98.669 E.02406
G1 X155.535 Y98.784 E.00398
G1 X167.574 Y110.822 E.5851
G1 X167.042 Y110.822 E.01828
G1 X155.603 Y99.382 E.55598
G1 X155.664 Y99.93 E.01895
G1 X155.66 Y99.971 E.00142
G1 X166.511 Y110.822 E.52738
G1 X165.98 Y110.822 E.01825
G1 X155.606 Y100.448 E.5042
G1 X155.552 Y100.926 E.01653
G1 X165.448 Y110.822 E.48097
G1 X164.917 Y110.822 E.01825
G1 X155.461 Y101.366 E.45958
G1 X155.323 Y101.76 E.01435
G1 X164.385 Y110.822 E.44043
G1 X163.854 Y110.822 E.01825
G1 X155.186 Y102.153 E.42131
G1 X155.103 Y102.389 E.0086
G1 X155.021 Y102.52 E.00531
G1 X163.323 Y110.822 E.40349
G1 X162.791 Y110.822 E.01828
G1 X154.816 Y102.846 E.38763
G1 X154.611 Y103.173 E.01326
G1 X162.26 Y110.822 E.37176
G1 X161.729 Y110.822 E.01825
M73 P7 R18
G1 X154.399 Y103.493 E.35623
G1 X154.133 Y103.758 E.0129
G1 X161.197 Y110.822 E.34332
G1 X160.666 Y110.822 E.01825
G1 X153.868 Y104.024 E.3304
G1 X153.602 Y104.29 E.01293
G1 X160.135 Y110.822 E.31749
G1 X159.603 Y110.822 E.01828
G1 X153.292 Y104.511 E.30673
G1 X152.966 Y104.716 E.01323
G1 X159.072 Y110.822 E.29676
G1 X158.54 Y110.822 E.01828
G1 X152.64 Y104.921 E.28678
G1 X152.456 Y105.037 E.00748
G1 X152.284 Y105.097 E.00626
G1 X158.009 Y110.822 E.27825
G1 X157.478 Y110.822 E.01825
G1 X151.89 Y105.235 E.27156
G1 X151.497 Y105.372 E.0143
G1 X156.946 Y110.822 E.26486
G1 X156.415 Y110.822 E.01825
G1 X151.07 Y105.477 E.25978
G1 X150.592 Y105.531 E.01653
G1 X155.884 Y110.822 E.25718
G1 X155.352 Y110.822 E.01828
G1 X150.115 Y105.585 E.25453
G1 X149.996 Y105.598 E.00411
G1 X149.546 Y105.547 E.01556
G1 X154.821 Y110.822 E.25638
G1 X154.289 Y110.822 E.01828
G1 X148.947 Y105.48 E.25963
G1 X148.735 Y105.456 E.00733
G1 X148.207 Y105.271 E.01923
G1 X153.926 Y110.99 E.27796
;WIPE_START
G1 F8640
G1 X151.476 Y108.54 E-.8
;WIPE_END
G1 Z.42 F10800
G1 X146.479 Y89.195
G1 Z.22
G1 E.8 F2100
G1 F1200
G1 X151.917 Y94.634 E.26432
G1 X151.347 Y94.434 E.02076
G1 X151.142 Y94.39 E.00721
G1 X146.167 Y89.415 E.2418
G1 X145.811 Y89.472 E.01239
G1 X145.716 Y89.496 E.00337
G1 X150.543 Y94.322 E.23458
G1 X150.136 Y94.276 E.01408
G1 X149.959 Y94.271 E.00609
G1 X145.293 Y89.604 E.2268
G1 X144.87 Y89.713 E.01501
G1 X149.477 Y94.32 E.22391
G1 X149.001 Y94.374 E.01646
G1 X144.447 Y89.821 E.22131
G1 X144.024 Y89.929 E.015
G1 X148.56 Y94.465 E.22046
G1 X148.166 Y94.603 E.01435
G1 X143.627 Y90.064 E.2206
G1 X143.236 Y90.204 E.01427
G1 X147.772 Y94.74 E.22046
G1 X147.54 Y94.822 E.00846
G1 X147.406 Y94.906 E.00544
G1 X142.845 Y90.344 E.2217
G1 X142.454 Y90.484 E.01427
G1 X147.08 Y95.111 E.22486
G1 X146.754 Y95.316 E.01323
M73 P8 R18
G1 X142.068 Y90.63 E.22775
G1 X141.706 Y90.799 E.01373
G1 X146.434 Y95.527 E.22979
G1 X146.168 Y95.793 E.01293
G1 X141.344 Y90.969 E.23446
G1 X140.982 Y91.138 E.01373
G1 X145.902 Y96.058 E.23912
G1 X145.637 Y96.324 E.0129
G1 X140.619 Y91.307 E.24386
G1 X140.399 Y91.41 E.00835
G1 X140.268 Y91.487 E.00522
G1 X145.415 Y96.634 E.25015
G1 X145.21 Y96.96 E.01323
G1 X139.933 Y91.683 E.25647
G1 X139.598 Y91.88 E.01336
G1 X145.005 Y97.287 E.26279
G1 X144.889 Y97.471 E.00748
G1 X144.829 Y97.642 E.00623
G1 X139.263 Y92.076 E.27052
G1 X138.928 Y92.272 E.01334
G1 X144.692 Y98.036 E.28014
G1 X144.554 Y98.43 E.01435
G1 X138.604 Y92.48 E.28918
G1 X138.295 Y92.702 E.01308
G1 X144.449 Y98.856 E.2991
G1 X144.395 Y99.334 E.01653
G1 X137.986 Y92.925 E.31149
G1 X137.677 Y93.147 E.01308
G1 X144.341 Y99.811 E.32388
G1 X144.328 Y99.93 E.00411
G1 X144.379 Y100.38 E.01556
G1 X137.368 Y93.369 E.34075
G1 X137.181 Y93.504 E.00793
G1 X137.069 Y93.601 E.00509
G1 X144.446 Y100.979 E.35856
G1 X144.47 Y101.191 E.00733
G1 X144.655 Y101.719 E.01923
G1 X136.785 Y93.849 E.3825
