; generated by PrusaSlicer 2.8.0+win64 on 2024-07-16 at 14:12:21 UTC


;
;

;
;
; 

; external perimeters extrusion width = 0.45mm
; perimeters extrusion width = 0.45mm
; infill extrusion width = 0.45mm
; solid infill extrusion width = 0.45mm
; top infill extrusion width = 0.40mm
; first layer extrusion width = 0.42mm

M73 P0 R32

; printing object Support Moteur-Corps id:0 copy 0
; stop printing object Support Moteur-Corps id:0 copy 0

;TYPE:Custom
M104 S215 ; set extruder temp
M140 S74 ; set bed temp
M190 S74 ; wait for bed temp
M109 S215 ; wait for extruder temp
G1 Z5 F15000 ; lift
G1 X299 Y160 F4500 ; move to prime
G1 Z0.29 F4500 ; get ready to prime
G92 E0 ; reset extrusion distance
G1 Y150 E9.0 F600 ; prime nozzle
G1 Y110 E12.5 F600 ; prime nozzle
M73 P0 R31
G1 Y80 F5000 ; quick wipe
G21 ; set units to millimeters
G90 ; use absolute coordinates
M83 ; use relative distances for extrusion
M900 K0.05 ; Filament gcode LA 1.5
M900 K30 ; Filament gcode LA 1.0
M107
;LAYER_CHANGE
;Z:0.22
;HEIGHT:0.22
G1 E-.8 F2100
G1 Z.42 F10800
G1 X132.204 Y86.752
G1 Z.22
G1 E.8 F2100
M204 S1000
;TYPE:Skirt/Brim
;WIDTH:0.42
G1 F1200
G1 X133.237 Y85.951 E.04457
G1 X134 Y85.814 E.02643
G1 X166 Y85.814 E1.09111
G1 X167.248 Y86.204 E.04458
G1 X168.049 Y87.237 E.04457
G1 X168.186 Y88 E.02643
G1 X168.186 Y112 E.81833
G1 X167.796 Y113.248 E.04458
G1 X166.763 Y114.049 E.04457
G1 X166 Y114.186 E.02643
G1 X134 Y114.186 E1.09111
G1 X132.752 Y113.796 E.04458
G1 X131.951 Y112.763 E.04457
G1 X131.814 Y112 E.02643
G1 X131.814 Y88 E.81833
G1 X132.187 Y86.81 E.04252
;WIPE_START
G1 F8640
G1 X132.204 Y86.752 E-.01396
G1 X133.237 Y85.951 E-.30183
G1 X134 Y85.814 E-.179
G1 X135.322 Y85.814 E-.30521
;WIPE_END
G1 Z.42 F10800
; printing object Support Moteur-Corps id:0 copy 0
G1 X146.237 Y98.019
G1 Z.22
G1 E.8 F2100
;TYPE:Perimeter
G1 F1200
G1 X146.646 Y98.611 E.02453
G1 X146.901 Y99.285 E.02457
G1 X146.988 Y100 E.02456
G1 X146.901 Y100.715 E.02456
G1 X146.646 Y101.389 E.02457
G1 X146.237 Y101.982 E.02456
G1 X145.697 Y102.459 E.02457
G1 X145.06 Y102.794 E.02454
G1 X144.36 Y102.966 E.02458
G1 X143.64 Y102.966 E.02455
G1 X142.94 Y102.794 E.02458
G1 X142.303 Y102.459 E.02454
G1 X141.763 Y101.981 E.02459
M73 P1 R31
G1 X141.354 Y101.389 E.02453
G1 X141.099 Y100.715 E.02457
G1 X141.012 Y100 E.02456
G1 X141.099 Y99.285 E.02456
G1 X141.354 Y98.611 E.02457
G1 X141.763 Y98.019 E.02453
G1 X142.303 Y97.541 E.02459
G1 X142.94 Y97.206 E.02454
G1 X143.64 Y97.034 E.02458
G1 X144.36 Y97.034 E.02455
G1 X145.06 Y97.206 E.02458
G1 X145.697 Y97.541 E.02454
G1 X146.192 Y97.979 E.02254
G1 X146.192 Y97.979 F10800
G1 X145.955 Y98.268
G1 F1200
G1 X146.313 Y98.786 E.02147
G1 X146.537 Y99.375 E.02149
G1 X146.613 Y100 E.02147
G1 X146.537 Y100.625 E.02147
G1 X146.313 Y101.214 E.02149
G1 X145.955 Y101.732 E.02147
G1 X145.484 Y102.15 E.02147
G1 X144.926 Y102.443 E.02149
G1 X144.315 Y102.594 E.02146
G1 X143.685 Y102.594 E.02148
G1 X143.074 Y102.443 E.02146
G1 X142.516 Y102.15 E.02149
G1 X142.044 Y101.732 E.0215
G1 X141.687 Y101.214 E.02145
G1 X141.463 Y100.625 E.02149
G1 X141.387 Y100 E.02147
G1 X141.463 Y99.375 E.02147
G1 X141.687 Y98.786 E.02149
G1 X142.044 Y98.268 E.02145
G1 X142.516 Y97.85 E.0215
G1 X143.074 Y97.557 E.02149
G1 X143.685 Y97.406 E.02146
G1 X144.315 Y97.406 E.02148
G1 X144.926 Y97.557 E.02146
G1 X145.484 Y97.85 E.02149
G1 X145.911 Y98.228 E.01944
G1 X145.911 Y98.228 F10800
G1 X145.674 Y98.517
G1 F1200
G1 X145.981 Y98.96 E.01838
G1 X146.172 Y99.465 E.01841
G1 X146.237 Y100 E.01838
G1 X146.172 Y100.535 E.01838
G1 X145.981 Y101.04 E.01841
G1 X145.674 Y101.483 E.01838
G1 X145.271 Y101.841 E.01838
G1 X144.793 Y102.092 E.01841
G1 X144.27 Y102.221 E.01837
G1 X143.73 Y102.221 E.01841
G1 X143.207 Y102.092 E.01837
G1 X142.729 Y101.841 E.01841
G1 X142.326 Y101.483 E.01838
G1 X142.019 Y101.04 E.01838
G1 X141.828 Y100.535 E.01841
G1 X141.763 Y100 E.01838
G1 X141.828 Y99.465 E.01838
G1 X142.019 Y98.96 E.01841
G1 X142.326 Y98.517 E.01838
G1 X142.729 Y98.159 E.01838
G1 X143.207 Y97.908 E.01841
G1 X143.73 Y97.779 E.01837
G1 X144.27 Y97.779 E.01841
G1 X144.793 Y97.908 E.01837
G1 X145.271 Y98.159 E.01841
G1 X145.63 Y98.477 E.01635
G1 X145.63 Y98.477 F10800
G1 X145.393 Y98.766
;TYPE:External perimeter
G1 F1200
G1 X145.648 Y99.135 E.01529
G1 X145.807 Y99.555 E.01531
G1 X145.862 Y100 E.01529
G1 X145.807 Y100.445 E.01529
G1 X145.648 Y100.865 E.01531
G1 X145.393 Y101.234 E.01529
G1 X145.057 Y101.532 E.01531
G1 X144.66 Y101.741 E.0153
G1 X144.224 Y101.848 E.01531
G1 X143.776 Y101.848 E.01528
G1 X143.34 Y101.741 E.01531
G1 X142.943 Y101.532 E.0153
G1 X142.607 Y101.234 E.01531
G1 X142.352 Y100.865 E.01529
G1 X142.193 Y100.445 E.01531
G1 X142.138 Y100 E.01529
G1 X142.193 Y99.555 E.01529
G1 X142.352 Y99.135 E.01531
G1 X142.607 Y98.766 E.01529
G1 X142.943 Y98.468 E.01531
G1 X143.34 Y98.259 E.0153
G1 X143.776 Y98.152 E.01531
G1 X144.224 Y98.152 E.01528
G1 X144.66 Y98.259 E.01531
G1 X145.057 Y98.468 E.0153
G1 X145.348 Y98.726 E.01326
;WIPE_START
G1 F8640
G1 X145.393 Y98.766 E-.0139
G1 X145.648 Y99.135 E-.10357
G1 X145.807 Y99.555 E-.1037
G1 X145.862 Y100 E-.10353
G1 X145.807 Y100.445 E-.10353
G1 X145.648 Y100.865 E-.1037
G1 X145.393 Y101.234 E-.10357
G1 X145.057 Y101.532 E-.1037
G1 X144.824 Y101.654 E-.0608
;WIPE_END
G1 Z.42 F10800
G1 X164.672 Y110.672
G1 Z.22
G1 E.8 F2100
;TYPE:Perimeter
G1 F1200
G1 X135.328 Y110.672 E1.00055
G1 X135.328 Y89.328 E.72777
G1 X164.672 Y89.328 E1.00055
G1 X164.672 Y110.612 E.72572
G1 X164.672 Y110.612 F10800
G1 X165.044 Y111.044
G1 F1200
G1 X134.956 Y111.044 E1.02592
G1 X134.956 Y88.956 E.75314
G1 X165.044 Y88.956 E1.02592
G1 X165.044 Y110.984 E.75109
G1 X165.044 Y110.984 F10800
G1 X165.417 Y111.417
G1 F1200
G1 X134.583 Y111.417 E1.05135
G1 X134.583 Y88.583 E.77857
G1 X165.417 Y88.583 E1.05135
G1 X165.417 Y111.357 E.77653
G1 X165.417 Y111.357 F10800
G1 X165.79 Y111.79
;TYPE:External perimeter
G1 F1200
G1 X134.21 Y111.79 E1.07679
G1 X134.21 Y88.21 E.80401
M73 P2 R31
G1 X165.79 Y88.21 E1.07679
G1 X165.79 Y111.73 E.80197
;WIPE_START
G1 F8640
G1 X165.79 Y111.79 E-.01385
G1 X162.385 Y111.79 E-.78615
;WIPE_END
G1 Z.42 F10800
G1 X164.56 Y90.197
G1 Z.22
G1 E.8 F2100
;TYPE:Solid infill
;WIDTH:0.421708
G1 F1200
G1 X163.97 Y89.608 E.02856
G1 X163.441 Y89.608 E.01812
G1 X164.392 Y90.559 E.04607
G1 X164.392 Y91.089 E.01815
G1 X162.911 Y89.608 E.07174
G1 X162.381 Y89.608 E.01815
G1 X164.392 Y91.619 E.09742
G1 X164.392 Y92.148 E.01812
G1 X161.852 Y89.608 E.12304
G1 X161.322 Y89.608 E.01815
G1 X164.392 Y92.678 E.14872
G1 X164.392 Y93.207 E.01812
G1 X160.793 Y89.608 E.17434
G1 X160.263 Y89.608 E.01815
G1 X164.392 Y93.737 E.20002
G1 X164.392 Y94.267 E.01815
G1 X159.733 Y89.608 E.22569
G1 X159.204 Y89.608 E.01812
G1 X164.392 Y94.796 E.25132
G1 X164.392 Y95.326 E.01815
G1 X158.674 Y89.608 E.27699
G1 X158.145 Y89.608 E.01812
G1 X164.392 Y95.855 E.30261
G1 X164.392 Y96.385 E.01815
G1 X157.615 Y89.608 E.32829
G1 X157.085 Y89.608 E.01815
G1 X164.392 Y96.915 E.35396
G1 X164.392 Y97.444 E.01812
G1 X156.556 Y89.608 E.37959
G1 X156.026 Y89.608 E.01815
G1 X164.392 Y97.974 E.40526
G1 X164.392 Y98.504 E.01815
G1 X155.496 Y89.608 E.43094
G1 X154.967 Y89.608 E.01812
G1 X164.392 Y99.033 E.45656
G1 X164.392 Y99.563 E.01815
G1 X154.437 Y89.608 E.48224
G1 X153.908 Y89.608 E.01812
G1 X164.392 Y100.092 E.50786
G1 X164.392 Y100.622 E.01815
G1 X153.378 Y89.608 E.53354
G1 X152.848 Y89.608 E.01815
G1 X164.392 Y101.152 E.55921
G1 X164.392 Y101.681 E.01812
G1 X152.319 Y89.608 E.58484
G1 X151.789 Y89.608 E.01815
G1 X164.392 Y102.211 E.61051
G1 X164.392 Y102.74 E.01812
G1 X151.26 Y89.608 E.63614
G1 X150.73 Y89.608 E.01815
G1 X164.392 Y103.27 E.66181
G1 X164.392 Y103.8 E.01815
M73 P3 R31
G1 X150.2 Y89.608 E.68748
G1 X149.671 Y89.608 E.01812
G1 X164.392 Y104.329 E.71311
G1 X164.392 Y104.859 E.01815
G1 X149.141 Y89.608 E.73878
G1 X148.611 Y89.608 E.01815
G1 X164.392 Y105.389 E.76446
G1 X164.392 Y105.918 E.01812
G1 X148.082 Y89.608 E.79008
G1 X147.552 Y89.608 E.01815
G1 X164.392 Y106.448 E.81576
G1 X164.392 Y106.977 E.01812
G1 X147.023 Y89.608 E.84138
G1 X146.493 Y89.608 E.01815
M73 P3 R30
G1 X164.392 Y107.507 E.86706
G1 X164.392 Y108.037 E.01815
G1 X145.963 Y89.608 E.89273
G1 X145.434 Y89.608 E.01812
G1 X164.392 Y108.566 E.91836
G1 X164.392 Y109.096 E.01815
G1 X144.904 Y89.608 E.94403
G1 X144.375 Y89.608 E.01812
G1 X164.392 Y109.626 E.96968
G1 X164.392 Y110.155 E.01812
G1 X143.845 Y89.608 E.99533
G1 X143.315 Y89.608 E.01815
G1 X164.099 Y110.392 E1.00681
G1 X163.57 Y110.392 E.01812
G1 X142.786 Y89.608 E1.00681
G1 X142.256 Y89.608 E.01815
M73 P4 R30
G1 X163.04 Y110.392 E1.00681
G1 X162.511 Y110.392 E.01812
G1 X141.726 Y89.608 E1.00684
G1 X141.197 Y89.608 E.01812
G1 X161.981 Y110.392 E1.00681
G1 X161.451 Y110.392 E.01815
G1 X140.667 Y89.608 E1.00681
G1 X140.138 Y89.608 E.01812
G1 X160.922 Y110.392 E1.00681
G1 X160.392 Y110.392 E.01815
G1 X139.608 Y89.608 E1.00681
G1 X139.078 Y89.608 E.01815
G1 X159.862 Y110.392 E1.00681
G1 X159.333 Y110.392 E.01812
G1 X138.549 Y89.608 E1.00681
G1 X138.019 Y89.608 E.01815
G1 X158.803 Y110.392 E1.00681
G1 X158.274 Y110.392 E.01812
G1 X147.185 Y99.304 E.53715
G1 X147.258 Y99.906 E.02077
G1 X157.744 Y110.392 E.50796
G1 X157.214 Y110.392 E.01815
G1 X147.221 Y100.399 E.48408
G1 X147.175 Y100.783 E.01325
G1 X147.147 Y100.855 E.00265
G1 X156.685 Y110.392 E.46201
G1 X156.155 Y110.392 E.01815
G1 X147.002 Y101.239 E.44339
G1 X146.895 Y101.52 E.0103
G1 X146.837 Y101.604 E.0035
G1 X155.625 Y110.392 E.42571
G1 X155.096 Y110.392 E.01812
G1 X146.621 Y101.917 E.41054
G1 X146.447 Y102.168 E.01046
G1 X146.392 Y102.218 E.00255
G1 X154.566 Y110.392 E.39596
G1 X154.037 Y110.392 E.01812
M73 P5 R30
G1 X146.111 Y102.466 E.38395
G1 X145.857 Y102.691 E.01162
G1 X145.824 Y102.709 E.00129
G1 X153.507 Y110.392 E.37218
G1 X152.977 Y110.392 E.01815
G1 X145.476 Y102.891 E.36336
G1 X145.159 Y103.057 E.01226
G1 X145.122 Y103.066 E.0013
G1 X152.448 Y110.392 E.35488
G1 X151.918 Y110.392 E.01815
G1 X144.697 Y103.171 E.3498
G1 X144.394 Y103.246 E.01069
G1 X144.242 Y103.246 E.00521
G1 X151.389 Y110.392 E.34619
G1 X150.859 Y110.392 E.01815
G1 X143.713 Y103.246 E.34616
G1 X143.606 Y103.246 E.00367
G1 X143.045 Y103.108 E.01979
G1 X150.497 Y110.56 E.36099
;WIPE_START
G1 F8640
G1 X148.047 Y108.11 E-.8
;WIPE_END
G1 Z.42 F10800
G1 X144.944 Y97.062
G1 Z.22
G1 E.8 F2100
G1 F1200
G1 X137.489 Y89.608 E.36111
G1 X136.96 Y89.608 E.01812
G1 X144.106 Y96.754 E.34616
G1 X143.606 Y96.754 E.01713
G1 X143.582 Y96.76 E.00085
G1 X136.43 Y89.608 E.34645
G1 X135.901 Y89.608 E.01812
G1 X143.157 Y96.865 E.35152
G1 X142.841 Y96.943 E.01115
G1 X142.752 Y96.989 E.00343
G1 X135.608 Y89.845 E.34607
G1 X135.608 Y90.375 E.01815
G1 X142.405 Y97.171 E.32923
G1 X142.143 Y97.309 E.01014
G1 X142.074 Y97.37 E.00315
G1 X135.608 Y90.904 E.31322
G1 X135.608 Y91.434 E.01815
G1 X141.793 Y97.619 E.29961
G1 X141.553 Y97.832 E.01099
G1 X141.521 Y97.877 E.00189
G1 X135.608 Y91.963 E.28646
G1 X135.608 Y92.493 E.01815
G1 X141.305 Y98.19 E.27597
G1 X141.105 Y98.48 E.01207
G1 X141.094 Y98.509 E.00106
G1 X135.608 Y93.023 E.26575
G1 X135.608 Y93.552 E.01812
G1 X140.948 Y98.893 E.2587
G1 X140.825 Y99.218 E.0119
G1 X140.816 Y99.29 E.00249
G1 X135.608 Y94.082 E.25228
G1 X135.608 Y94.611 E.01812
G1 X140.759 Y99.763 E.24955
G1 X140.73 Y100 E.00818
G1 X140.767 Y100.3 E.01035
G1 X135.608 Y95.141 E.24991
G1 X135.608 Y95.671 E.01815
G1 X141.179 Y101.241 E.26984
;WIPE_START
G1 F8640
G1 X138.729 Y98.791 E-.8
;WIPE_END
G1 Z.42 F10800
G1 X135.44 Y96.033
G1 Z.22
G1 E.8 F2100
G1 F1200
G1 X149.8 Y110.392 E.6956
G1 X149.27 Y110.392 E.01815
G1 X135.608 Y96.73 E.66181
G1 X135.608 Y97.26 E.01815
G1 X148.74 Y110.392 E.63614
G1 X148.211 Y110.392 E.01812
G1 X135.608 Y97.789 E.61051
G1 X135.608 Y98.319 E.01815
G1 X147.681 Y110.392 E.58484
G1 X147.152 Y110.392 E.01812
G1 X135.608 Y98.848 E.55921
G1 X135.608 Y99.378 E.01815
G1 X146.622 Y110.392 E.53354
G1 X146.092 Y110.392 E.01815
M73 P6 R30
G1 X135.608 Y99.908 E.50786
G1 X135.608 Y100.437 E.01812
G1 X145.563 Y110.392 E.48224
G1 X145.033 Y110.392 E.01815
G1 X135.608 Y100.967 E.45656
G1 X135.608 Y101.496 E.01812
G1 X144.504 Y110.392 E.43094
G1 X143.974 Y110.392 E.01815
G1 X135.608 Y102.026 E.40526
G1 X135.608 Y102.556 E.01815
G1 X143.444 Y110.392 E.37959
G1 X142.915 Y110.392 E.01812
G1 X135.608 Y103.085 E.35396
G1 X135.608 Y103.615 E.01815
G1 X142.385 Y110.392 E.32829
G1 X141.855 Y110.392 E.01815
G1 X135.608 Y104.145 E.30261
G1 X135.608 Y104.674 E.01812
G1 X141.326 Y110.392 E.27699
G1 X140.796 Y110.392 E.01815
G1 X135.608 Y105.204 E.25132
G1 X135.608 Y105.733 E.01812
G1 X140.267 Y110.392 E.22569
G1 X139.737 Y110.392 E.01815
G1 X135.608 Y106.263 E.20002
G1 X135.608 Y106.793 E.01815
G1 X139.207 Y110.392 E.17434
G1 X138.678 Y110.392 E.01812
G1 X135.608 Y107.322 E.14872
G1 X135.608 Y107.852 E.01815
G1 X138.148 Y110.392 E.12304
G1 X137.618 Y110.392 E.01815
G1 X135.608 Y108.382 E.09737
G1 X135.608 Y108.911 E.01812
G1 X137.089 Y110.392 E.07174
G1 X136.559 Y110.392 E.01815
G1 X135.608 Y109.441 E.04607
G1 X135.608 Y109.97 E.01812
G1 X136.197 Y110.56 E.02856
M106 S84.15
;LAYER_CHANGE
;Z:0.42
;HEIGHT:0.2
;BEFORE_LAYER_CHANGE
G92 E0.0
;0.42
;WIPE_START
G1 F8640
G1 X135.608 Y109.97 E-.1925
G1 X135.608 Y109.441 E-.12215
G1 X136.559 Y110.392 E-.31055
G1 X137.089 Y110.392 E-.12238
G1 X136.928 Y110.231 E-.05242
;WIPE_END
G1 Z.42 F10800
;AFTER_LAYER_CHANGE
;0.42
M104 S210 ; set temperature
M140 S68 ; set bed temperature
; stop printing object Support Moteur-Corps id:0 copy 0
G1 Z.62
G1 X136.928 Y114.186
G1 Z.42
G1 E.8 F2100
;TYPE:Skirt/Brim
;WIDTH:0.42
G1 F3000
G1 X134 Y114.186 E.09181
G1 X132.752 Y113.796 E.041
G1 X131.951 Y112.763 E.04099
G1 X131.814 Y112 E.02431
G1 X131.814 Y88 E.7525
G1 X132.204 Y86.752 E.041
G1 X133.237 Y85.951 E.04099
G1 X134 Y85.814 E.02431
G1 X166 Y85.814 E1.00334
G1 X167.248 Y86.204 E.041
M73 P6 R29
G1 X168.049 Y87.237 E.04099
G1 X168.186 Y88 E.02431
G1 X168.186 Y112 E.7525
G1 X167.796 Y113.248 E.041
G1 X166.763 Y114.049 E.04099
G1 X166 Y114.186 E.02431
G1 X136.988 Y114.186 E.90965
;WIPE_START
G1 F8640
G1 X136.928 Y114.186 E-.01385
G1 X134 Y114.186 E-.67608
G1 X133.545 Y114.044 E-.11007
;WIPE_END
G1 Z.62 F10800
; printing object Support Moteur-Corps id:0 copy 0
G1 X146.325 Y97.94
G1 Z.42
G1 E.8 F2100
M204 S800
;TYPE:Perimeter
;WIDTH:0.45
G1 F1500
G1 X146.751 Y98.556 E.02535
G1 X147.017 Y99.256 E.02535
G1 X147.107 Y100 E.02537
G1 X147.018 Y100.733 E.02499
G1 X146.753 Y101.441 E.02559
G1 X146.325 Y102.06 E.02547
G1 X145.765 Y102.557 E.02534
G1 X145.102 Y102.905 E.02535
G1 X144.374 Y103.084 E.02538
G1 X143.626 Y103.084 E.02532
G1 X142.898 Y102.905 E.02538
G1 X142.235 Y102.557 E.02535
G1 X141.674 Y102.06 E.02537
G1 X141.249 Y101.444 E.02533
G1 X140.983 Y100.744 E.02535
G1 X140.893 Y100 E.02537
G1 X140.983 Y99.256 E.02537
G1 X141.249 Y98.556 E.02535
G1 X141.674 Y97.94 E.02533
G1 X142.235 Y97.443 E.02537
G1 X142.898 Y97.095 E.02535
G1 X143.625 Y96.916 E.02534
G1 X144.375 Y96.916 E.02539
G1 X145.102 Y97.095 E.02534
G1 X145.765 Y97.443 E.02535
G1 X146.281 Y97.9 E.02333
M204 S1000
G1 X146.281 Y97.9 F10800
G1 X146.019 Y98.212
M204 S800
G1 F1500
G1 X146.388 Y98.747 E.022
G1 X146.618 Y99.355 E.022
G1 X146.697 Y100 E.022
G1 X146.62 Y100.636 E.02169
G1 X146.389 Y101.251 E.02224
G1 X146.019 Y101.788 E.02207
G1 X145.532 Y102.219 E.02201
G1 X144.956 Y102.522 E.02203
G1 X144.325 Y102.677 E.02199
G1 X143.675 Y102.677 E.022
G1 X143.044 Y102.522 E.02199
G1 X142.468 Y102.219 E.02203
G1 X141.981 Y101.788 E.02201
G1 X141.612 Y101.253 E.022
G1 X141.382 Y100.645 E.022
G1 X141.303 Y100 E.022
G1 X141.382 Y99.355 E.022
G1 X141.612 Y98.747 E.022
G1 X141.981 Y98.212 E.022
G1 X142.468 Y97.781 E.02201
G1 X143.044 Y97.478 E.02203
G1 X143.675 Y97.323 E.02199
G1 X144.325 Y97.323 E.022
G1 X144.956 Y97.478 E.02199
G1 X145.532 Y97.781 E.02203
G1 X145.974 Y98.172 E.01997
M204 S1000
G1 X145.974 Y98.172 F10800
G1 X145.712 Y98.484
M204 S800
G1 F1500
G1 X146.025 Y98.937 E.01864
G1 X146.22 Y99.453 E.01867
G1 X146.287 Y100 E.01865
G1 X146.221 Y100.538 E.01835
G1 X146.026 Y101.062 E.01893
G1 X145.712 Y101.516 E.01868
G1 X145.299 Y101.882 E.01868
